;FLAVOR:RepRap
;TIME:2562
;Filament used: 2.13598m
;Layer height: 0.15
;Generated with Cura_SteamEngine 0.0.0-master
M104 S200
M109 S200
;Sliced at: Sat 05-09-2020 10:08:57 
 ;Basic settings: Layer height: 0.15 Walls: 1.2 Fill: {fill_density} 
 ;Print time: 00:42:43 
 ;Filament used: [2.14]m [6.37065197265625]g 
 ;Filament cost: [0] 
 ;M190 S60 ;Uncomment to add your own bed temperature line 
 ;M109 S200 ;Uncomment to add your own temperature line 
 G21        ;metric values 
 G90        ;absolute positioning 
 M82        ;set extruder to absolute mode 
 M107       ;start with the fan off 
 G28 X0 Y0  ;move X/Y to min endstops 
 G28 Z0     ;move Z to min endstops 
 G1 Z15.0 F3000 ;move the platform down 15mm 
 G92 E0                  ;zero the extruded length 
 G1 F3000 E3              ;extrude 3mm of feed stock 
 G92 E0                  ;zero the extruded length again 
 G1 F3000 
 ;Put printing message on LCD screen 
 M117 Printing...
;LAYER_COUNT:113
;LAYER:0
M107
G0 F3600 X-31.674 Y2.73 Z0.299
;TYPE:SKIRT
G1 F1800 X-31.79 Y0.389 E0.11694
G1 X-31.791 Y-0.381 E0.15535
G1 X-31.675 Y-2.733 E0.27284
G1 X-31.601 Y-3.485 E0.31053
G1 X-31.258 Y-5.814 E0.42798
G1 X-31.151 Y-6.388 E0.45711
G1 X-30.895 Y-7.527 E0.51536
G1 X-30.749 Y-8.082 E0.54399
G1 X-30.063 Y-10.343 E0.66187
G1 X-29.807 Y-11.059 E0.6998
G1 X-28.908 Y-13.233 E0.81717
G1 X-28.581 Y-13.924 E0.85531
G1 X-27.471 Y-16.004 E0.97293
G1 X-27.075 Y-16.666 E1.01142
G1 X-25.766 Y-18.625 E1.12896
G1 X-25.31 Y-19.24 E1.16716
G1 X-23.816 Y-21.06 E1.28464
G1 X-23.306 Y-21.623 E1.32254
G1 X-21.635 Y-23.296 E1.4405
G1 X-21.064 Y-23.813 E1.47893
G1 X-19.251 Y-25.301 E1.59595
G1 X-18.638 Y-25.756 E1.63403
G1 X-16.671 Y-27.071 E1.75208
G1 X-16.011 Y-27.467 E1.79048
G1 X-13.933 Y-28.577 E1.90801
G1 X-13.24 Y-28.904 E1.94624
G1 X-11.065 Y-29.804 E2.06368
G1 X-10.345 Y-30.062 E2.10184
G1 X-8.078 Y-30.749 E2.22002
G1 X-7.335 Y-30.935 E2.25823
G1 X-5.033 Y-31.392 E2.37532
G1 X-4.279 Y-31.503 E2.41334
G1 X-1.945 Y-31.733 E2.53035
G1 X-1.18 Y-31.771 E2.56856
G1 X1.185 Y-31.771 E2.68655
G1 X1.956 Y-31.733 E2.72506
G1 X4.303 Y-31.5 E2.84273
G1 X5.052 Y-31.388 E2.88051
G1 X7.337 Y-30.934 E2.99674
G1 X8.079 Y-30.749 E3.03489
G1 X10.34 Y-30.064 E3.15276
G1 X11.059 Y-29.807 E3.19085
G1 X13.233 Y-28.908 E3.30822
G1 X13.928 Y-28.58 E3.34656
G1 X16.015 Y-27.465 E3.46461
G1 X16.673 Y-27.07 E3.5029
G1 X18.633 Y-25.76 E3.62051
G1 X19.247 Y-25.305 E3.65864
G1 X21.058 Y-23.819 E3.77552
G1 X21.624 Y-23.306 E3.81363
G1 X23.298 Y-21.633 E3.9317
G1 X23.813 Y-21.064 E3.96999
G1 X25.301 Y-19.251 E4.087
G1 X25.756 Y-18.638 E4.12509
G1 X27.065 Y-16.68 E4.24259
G1 X27.458 Y-16.026 E4.28066
G1 X28.574 Y-13.941 E4.39864
G1 X28.904 Y-13.244 E4.43712
G1 X29.802 Y-11.075 E4.55424
G1 X29.999 Y-10.544 E4.58249
G1 X30.366 Y-9.436 E4.64073
G1 X30.527 Y-8.883 E4.66946
G1 X31.103 Y-6.589 E4.78746
G1 X31.254 Y-5.831 E4.82602
G1 X31.6 Y-3.494 E4.94389
G1 X31.674 Y-2.737 E4.98183
G1 X31.79 Y-0.392 E5.09897
G1 X31.791 Y0.377 E5.13733
G1 X31.675 Y2.729 E5.25482
G1 X31.601 Y3.48 E5.29247
G1 X31.258 Y5.812 E5.41006
G1 X31.107 Y6.573 E5.44877
G1 X30.535 Y8.856 E5.56619
G1 X30.312 Y9.589 E5.60441
G1 X29.515 Y11.815 E5.72237
G1 X29.225 Y12.516 E5.76022
G1 X28.224 Y14.636 E5.87719
G1 X27.86 Y15.319 E5.9158
G1 X26.647 Y17.341 E6.03344
G1 X26.223 Y17.974 E6.07145
G1 X24.814 Y19.874 E6.18946
G1 X24.332 Y20.462 E6.22739
G1 X22.759 Y22.2 E6.34434
G1 X22.215 Y22.745 E6.38276
G1 X20.471 Y24.326 E6.5002
G1 X19.878 Y24.812 E6.53845
G1 X17.978 Y26.221 E6.65646
G1 X17.344 Y26.645 E6.69451
G1 X15.333 Y27.851 E6.8115
G1 X14.659 Y28.212 E6.84964
G1 X12.528 Y29.221 E6.96728
G1 X11.821 Y29.514 E7.00546
G1 X9.608 Y30.307 E7.12274
G1 X8.874 Y30.53 E7.16101
G1 X6.581 Y31.105 E7.27895
G1 X5.824 Y31.255 E7.31745
G1 X3.489 Y31.6 E7.43521
G1 X2.734 Y31.674 E7.47306
G1 X0.387 Y31.79 E7.59029
G1 X-0.382 Y31.791 E7.62866
G1 X-2.736 Y31.675 E7.74624
G1 X-3.491 Y31.6 E7.7841
G1 X-5.821 Y31.256 E7.9016
G1 X-6.578 Y31.106 E7.9401
G1 X-8.86 Y30.534 E8.05747
G1 X-9.595 Y30.311 E8.09579
G1 X-11.817 Y29.515 E8.21355
G1 X-12.521 Y29.223 E8.25157
G1 X-14.65 Y28.216 E8.36907
G1 X-15.326 Y27.855 E8.4073
G1 X-17.339 Y26.648 E8.5244
G1 X-17.974 Y26.223 E8.56252
G1 X-19.874 Y24.814 E8.68053
G1 X-20.463 Y24.331 E8.71854
G1 X-22.208 Y22.751 E8.83598
G1 X-22.753 Y22.207 E8.8744
G1 X-24.327 Y20.47 E8.99134
G1 X-24.812 Y19.878 E9.02952
G1 X-26.221 Y17.978 E9.14754
G1 X-26.647 Y17.34 E9.18581
G1 X-27.857 Y15.32 E9.30328
G1 X-28.216 Y14.649 E9.34125
G1 X-29.221 Y12.526 E9.45844
G1 X-29.514 Y11.819 E9.49662
G1 X-30.311 Y9.594 E9.61453
G1 X-30.535 Y8.858 E9.65291
G1 X-31.108 Y6.569 E9.77063
G1 X-31.258 Y5.811 E9.80918
G1 X-31.601 Y3.48 E9.92673
G1 X-31.674 Y2.73 E9.96433
G0 F3600 X-31.275 Y2.71
G1 F1800 X-31.391 Y0.369 E10.08126
G1 X-31.391 Y-0.362 E10.11773
G1 X-31.275 Y-2.714 E10.23522
G1 X-31.205 Y-3.427 E10.27096
G1 X-30.862 Y-5.756 E10.38841
G1 X-30.761 Y-6.301 E10.41606
G1 X-30.505 Y-7.44 E10.4743
G1 X-30.366 Y-7.965 E10.5014
G1 X-29.68 Y-10.226 E10.61928
G1 X-29.437 Y-10.906 E10.6553
G1 X-28.538 Y-13.08 E10.77267
G1 X-28.229 Y-13.736 E10.80885
G1 X-27.119 Y-15.816 E10.92647
G1 X-26.743 Y-16.443 E10.96295
G1 X-25.434 Y-18.402 E11.08049
G1 X-25.001 Y-18.986 E11.11676
G1 X-23.507 Y-20.806 E11.23424
G1 X-23.023 Y-21.34 E11.27019
G1 X-21.352 Y-23.013 E11.38816
G1 X-20.811 Y-23.504 E11.42461
G1 X-18.998 Y-24.992 E11.54163
G1 X-18.416 Y-25.424 E11.57779
G1 X-16.449 Y-26.739 E11.69583
G1 X-15.823 Y-27.114 E11.73224
G1 X-13.745 Y-28.224 E11.84977
G1 X-13.087 Y-28.535 E11.88608
G1 X-10.912 Y-29.435 E12.00352
G1 X-10.229 Y-29.679 E12.0397
G1 X-7.962 Y-30.366 E12.15788
G1 X-7.257 Y-30.542 E12.19413
G1 X-4.955 Y-30.999 E12.31122
G1 X-4.24 Y-31.105 E12.34728
G1 X-1.906 Y-31.335 E12.46429
G1 X-1.18 Y-31.371 E12.50056
G1 X1.185 Y-31.371 E12.61855
G1 X1.916 Y-31.335 E12.65506
G1 X4.263 Y-31.102 E12.77273
G1 X4.974 Y-30.996 E12.80859
G1 X7.259 Y-30.542 E12.92482
G1 X7.963 Y-30.366 E12.96102
G1 X10.224 Y-29.681 E13.07889
G1 X10.906 Y-29.437 E13.11503
G1 X13.08 Y-28.538 E13.23239
G1 X13.739 Y-28.227 E13.26875
G1 X15.826 Y-27.112 E13.3868
G1 X16.451 Y-26.737 E13.42316
G1 X18.411 Y-25.427 E13.54078
G1 X18.993 Y-24.996 E13.57691
G1 X20.804 Y-23.51 E13.69378
G1 X21.341 Y-23.023 E13.72995
G1 X23.015 Y-21.35 E13.84802
G1 X23.504 Y-20.811 E13.88433
G1 X24.992 Y-18.998 E14.00135
G1 X25.424 Y-18.416 E14.03751
G1 X26.733 Y-16.458 E14.15501
G1 X27.105 Y-15.837 E14.19113
G1 X28.221 Y-13.752 E14.30911
G1 X28.534 Y-13.091 E14.3456
G1 X29.432 Y-10.922 E14.46272
G1 X29.62 Y-10.418 E14.48956
G1 X29.987 Y-9.31 E14.54779
G1 X30.139 Y-8.785 E14.57506
G1 X30.715 Y-6.491 E14.69306
G1 X30.858 Y-5.773 E14.72958
G1 X31.204 Y-3.436 E14.84745
G1 X31.275 Y-2.718 E14.88344
G1 X31.391 Y-0.373 E15.00058
G1 X31.391 Y0.358 E15.03705
G1 X31.275 Y2.71 E15.15453
G1 X31.205 Y3.422 E15.19023
G1 X30.862 Y5.754 E15.30782
G1 X30.719 Y6.475 E15.34449
G1 X30.147 Y8.758 E15.46191
G1 X29.936 Y9.454 E15.4982
G1 X29.139 Y11.68 E15.61616
G1 X28.864 Y12.346 E15.6521
G1 X27.863 Y14.466 E15.76907
G1 X27.517 Y15.113 E15.80567
G1 X26.304 Y17.135 E15.92331
G1 X25.902 Y17.736 E15.95938
G1 X24.493 Y19.636 E16.0774
G1 X24.036 Y20.194 E16.11338
G1 X22.463 Y21.932 E16.23033
G1 X21.946 Y22.449 E16.26681
G1 X20.202 Y24.03 E16.38425
G1 X19.64 Y24.491 E16.42051
G1 X17.74 Y25.9 E16.53852
G1 X17.138 Y26.302 E16.57464
G1 X15.127 Y27.508 E16.69162
G1 X14.488 Y27.85 E16.72778
G1 X12.357 Y28.859 E16.84541
G1 X11.686 Y29.137 E16.88165
G1 X9.473 Y29.93 E16.99893
G1 X8.777 Y30.142 E17.03523
G1 X6.484 Y30.717 E17.15317
G1 X5.766 Y30.86 E17.1897
G1 X3.431 Y31.205 E17.30745
G1 X2.714 Y31.275 E17.34339
G1 X0.367 Y31.391 E17.46063
G1 X-0.362 Y31.391 E17.497
G1 X-2.716 Y31.275 E17.61458
G1 X-3.433 Y31.205 E17.65053
G1 X-5.763 Y30.861 E17.76803
G1 X-6.481 Y30.718 E17.80455
G1 X-8.763 Y30.146 E17.92193
G1 X-9.46 Y29.934 E17.95827
G1 X-11.682 Y29.138 E18.07603
G1 X-12.35 Y28.861 E18.11211
G1 X-14.479 Y27.854 E18.2296
G1 X-15.12 Y27.512 E18.26585
G1 X-17.133 Y26.305 E18.38295
G1 X-17.736 Y25.902 E18.41913
G1 X-19.636 Y24.493 E18.53715
G1 X-20.195 Y24.035 E18.5732
G1 X-21.94 Y22.455 E18.69064
G1 X-22.457 Y21.938 E18.72712
G1 X-24.031 Y20.201 E18.84406
G1 X-24.491 Y19.64 E18.88026
G1 X-25.9 Y17.74 E18.99827
G1 X-26.304 Y17.135 E19.03457
G1 X-27.514 Y15.115 E19.15204
G1 X-27.854 Y14.478 E19.18806
G1 X-28.859 Y12.355 E19.30525
G1 X-29.138 Y11.684 E19.3415
G1 X-29.935 Y9.459 E19.45942
G1 X-30.147 Y8.761 E19.49581
G1 X-30.72 Y6.472 E19.61353
G1 X-30.862 Y5.752 E19.65015
G1 X-31.205 Y3.421 E19.76769
G1 X-31.275 Y2.71 E19.80334
G0 F3600 X-30.875 Y2.69
G1 F1800 X-30.991 Y0.349 E19.92027
G1 X-30.992 Y-0.342 E19.95475
G1 X-30.876 Y-2.694 E20.07223
G1 X-30.809 Y-3.369 E20.10607
G1 X-30.466 Y-5.698 E20.22352
G1 X-30.371 Y-6.213 E20.24965
G1 X-30.115 Y-7.352 E20.30789
G1 X-29.983 Y-7.849 E20.33354
G1 X-29.297 Y-10.11 E20.45142
G1 X-29.068 Y-10.753 E20.48548
G1 X-28.169 Y-12.927 E20.60285
G1 X-27.876 Y-13.548 E20.6371
G1 X-26.766 Y-15.628 E20.75473
G1 X-26.41 Y-16.221 E20.78923
G1 X-25.101 Y-18.18 E20.90678
G1 X-24.692 Y-18.732 E20.94105
G1 X-23.198 Y-20.552 E21.05853
G1 X-22.74 Y-21.058 E21.09258
G1 X-21.069 Y-22.731 E21.21055
G1 X-20.557 Y-23.195 E21.24502
G1 X-18.744 Y-24.683 E21.36204
G1 X-18.193 Y-25.091 E21.39624
G1 X-16.226 Y-26.406 E21.51428
G1 X-15.634 Y-26.761 E21.54872
G1 X-13.556 Y-27.871 E21.66626
G1 X-12.934 Y-28.165 E21.70058
G1 X-10.759 Y-29.065 E21.81802
G1 X-10.113 Y-29.296 E21.85224
G1 X-7.846 Y-29.983 E21.97042
G1 X-7.179 Y-30.15 E22.00473
G1 X-4.877 Y-30.607 E22.12182
G1 X-4.2 Y-30.707 E22.15596
G1 X-1.866 Y-30.937 E22.27297
G1 X-1.18 Y-30.971 E22.30723
G1 X1.185 Y-30.971 E22.42522
G1 X1.877 Y-30.937 E22.45979
G1 X4.224 Y-30.704 E22.57746
G1 X4.896 Y-30.604 E22.61135
G1 X7.181 Y-30.15 E22.72758
G1 X7.847 Y-29.983 E22.76184
G1 X10.108 Y-29.298 E22.8797
G1 X10.753 Y-29.068 E22.91386
G1 X12.927 Y-28.169 E23.03123
G1 X13.551 Y-27.874 E23.06567
G1 X15.638 Y-26.759 E23.18372
G1 X16.229 Y-26.405 E23.21809
G1 X18.189 Y-25.095 E23.3357
G1 X18.739 Y-24.686 E23.3699
G1 X20.55 Y-23.2 E23.48677
G1 X21.058 Y-22.74 E23.52096
G1 X22.732 Y-21.067 E23.63904
G1 X23.195 Y-20.557 E23.6734
G1 X24.683 Y-18.744 E23.79042
G1 X25.091 Y-18.193 E23.82462
G1 X26.4 Y-16.235 E23.94213
G1 X26.753 Y-15.648 E23.9763
G1 X27.869 Y-13.563 E24.09428
G1 X28.165 Y-12.938 E24.12879
G1 X29.063 Y-10.769 E24.24591
G1 X29.24 Y-10.292 E24.27129
G1 X29.607 Y-9.184 E24.32952
G1 X29.751 Y-8.688 E24.35529
G1 X30.327 Y-6.394 E24.47329
G1 X30.463 Y-5.714 E24.50789
G1 X30.809 Y-3.377 E24.62575
G1 X30.875 Y-2.698 E24.65978
G1 X30.991 Y-0.353 E24.77692
G1 X30.992 Y0.338 E24.81139
G1 X30.876 Y2.69 E24.92888
G1 X30.809 Y3.364 E24.96267
G1 X30.466 Y5.696 E25.08027
G1 X30.331 Y6.378 E25.11495
G1 X29.759 Y8.661 E25.23237
G1 X29.559 Y9.32 E25.26673
G1 X28.762 Y11.546 E25.38469
G1 X28.502 Y12.175 E25.41865
G1 X27.501 Y14.295 E25.53561
G1 X27.174 Y14.907 E25.57023
G1 X25.961 Y16.929 E25.68787
G1 X25.581 Y17.498 E25.722
G1 X24.172 Y19.398 E25.84001
G1 X23.739 Y19.925 E25.87404
G1 X22.166 Y21.663 E25.99099
G1 X21.677 Y22.152 E26.02549
G1 X19.933 Y23.733 E26.14293
G1 X19.402 Y24.17 E26.17724
G1 X17.502 Y25.579 E26.29525
G1 X16.932 Y25.959 E26.32943
G1 X14.921 Y27.165 E26.44642
G1 X14.317 Y27.489 E26.48061
G1 X12.186 Y28.498 E26.59825
G1 X11.551 Y28.761 E26.63254
G1 X9.338 Y29.554 E26.74982
G1 X8.68 Y29.754 E26.78413
G1 X6.387 Y30.329 E26.90207
G1 X5.707 Y30.464 E26.93666
G1 X3.372 Y30.809 E27.05441
G1 X2.695 Y30.875 E27.08835
G1 X0.348 Y30.991 E27.20559
G1 X-0.343 Y30.992 E27.24006
G1 X-2.697 Y30.876 E27.35764
G1 X-3.374 Y30.809 E27.39158
G1 X-5.704 Y30.465 E27.50909
G1 X-6.384 Y30.33 E27.54368
G1 X-8.666 Y29.758 E27.66105
G1 X-9.325 Y29.558 E27.69541
G1 X-11.547 Y28.762 E27.81316
G1 X-12.179 Y28.5 E27.84729
G1 X-14.308 Y27.493 E27.96479
G1 X-14.915 Y27.169 E27.99912
G1 X-16.928 Y25.962 E28.11622
G1 X-17.498 Y25.581 E28.15042
G1 X-19.398 Y24.172 E28.26843
G1 X-19.926 Y23.738 E28.30253
G1 X-21.671 Y22.158 E28.41998
G1 X-22.16 Y21.669 E28.45448
G1 X-23.734 Y19.932 E28.57142
G1 X-24.17 Y19.402 E28.60566
G1 X-25.579 Y17.502 E28.72368
G1 X-25.961 Y16.929 E28.75803
G1 X-27.171 Y14.909 E28.87551
G1 X-27.493 Y14.307 E28.90957
G1 X-28.498 Y12.184 E29.02675
G1 X-28.761 Y11.55 E29.061
G1 X-29.558 Y9.325 E29.17891
G1 X-29.758 Y8.664 E29.21336
G1 X-30.331 Y6.375 E29.33109
G1 X-30.466 Y5.694 E29.36572
G1 X-30.809 Y3.363 E29.48327
G1 X-30.875 Y2.69 E29.51701
G0 F3600 X-30.476 Y2.671
G1 F1800 X-30.592 Y0.33 E29.63394
G1 X-30.592 Y-0.322 E29.66647
G1 X-30.476 Y-2.674 E29.78395
G1 X-30.414 Y-3.311 E29.81589
G1 X-30.071 Y-5.64 E29.93333
G1 X-29.98 Y-6.125 E29.95795
G1 X-29.724 Y-7.264 E30.01619
G1 X-29.601 Y-7.733 E30.04038
G1 X-28.915 Y-9.994 E30.15826
G1 X-28.698 Y-10.6 E30.19038
G1 X-27.799 Y-12.774 E30.30775
G1 X-27.523 Y-13.359 E30.34002
G1 X-26.413 Y-15.439 E30.45764
G1 X-26.078 Y-15.999 E30.4902
G1 X-24.769 Y-17.958 E30.60774
G1 X-24.382 Y-18.479 E30.64012
G1 X-22.888 Y-20.299 E30.7576
G1 X-22.457 Y-20.775 E30.78963
G1 X-20.786 Y-22.448 E30.9076
G1 X-20.303 Y-22.886 E30.94013
G1 X-18.49 Y-24.374 E31.05714
G1 X-17.971 Y-24.759 E31.08938
G1 X-16.004 Y-26.074 E31.20743
G1 X-15.446 Y-26.409 E31.2399
G1 X-13.368 Y-27.519 E31.35743
G1 X-12.782 Y-27.796 E31.38977
G1 X-10.607 Y-28.696 E31.50721
G1 X-9.997 Y-28.913 E31.53951
G1 X-7.73 Y-29.6 E31.65769
G1 X-7.101 Y-29.758 E31.69004
G1 X-4.799 Y-30.215 E31.80713
G1 X-4.161 Y-30.309 E31.83931
G1 X-1.827 Y-30.539 E31.95631
G1 X-1.18 Y-30.571 E31.98863
G1 X1.185 Y-30.571 E32.10662
G1 X1.837 Y-30.539 E32.13919
G1 X4.184 Y-30.306 E32.25686
G1 X4.818 Y-30.211 E32.28884
G1 X7.103 Y-29.757 E32.40507
G1 X7.731 Y-29.6 E32.43736
G1 X9.992 Y-28.915 E32.55523
G1 X10.6 Y-28.698 E32.58744
G1 X12.774 Y-27.799 E32.70481
G1 X13.362 Y-27.521 E32.73725
G1 X15.449 Y-26.406 E32.8553
G1 X16.006 Y-26.072 E32.8877
G1 X17.966 Y-24.762 E33.00532
G1 X18.486 Y-24.377 E33.0376
G1 X20.297 Y-22.891 E33.15447
G1 X20.776 Y-22.457 E33.18672
G1 X22.45 Y-20.784 E33.3048
G1 X22.886 Y-20.303 E33.33718
G1 X24.374 Y-18.49 E33.4542
G1 X24.759 Y-17.971 E33.48644
G1 X26.068 Y-16.013 E33.60394
G1 X26.4 Y-15.46 E33.63612
G1 X27.516 Y-13.375 E33.75411
G1 X27.795 Y-12.785 E33.78667
G1 X28.693 Y-10.616 E33.90379
G1 X28.86 Y-10.166 E33.92773
G1 X29.227 Y-9.058 E33.98597
G1 X29.363 Y-8.59 E34.01028
G1 X29.939 Y-6.296 E34.12828
G1 X30.067 Y-5.656 E34.16084
G1 X30.413 Y-3.319 E34.27871
G1 X30.476 Y-2.678 E34.31084
G1 X30.592 Y-0.333 E34.42798
G1 X30.592 Y0.318 E34.46046
G1 X30.476 Y2.67 E34.57794
G1 X30.414 Y3.305 E34.60977
G1 X30.071 Y5.637 E34.72737
G1 X29.943 Y6.281 E34.76012
G1 X29.371 Y8.564 E34.87754
G1 X29.183 Y9.185 E34.90991
G1 X28.386 Y11.411 E35.02787
G1 X28.14 Y12.004 E35.0599
G1 X27.139 Y14.124 E35.17687
G1 X26.831 Y14.701 E35.2095
G1 X25.618 Y16.723 E35.32714
G1 X25.259 Y17.259 E35.35932
G1 X23.85 Y19.159 E35.47733
G1 X23.442 Y19.657 E35.50945
G1 X21.869 Y21.395 E35.6264
G1 X21.409 Y21.856 E35.65889
G1 X19.665 Y23.437 E35.77633
G1 X19.163 Y23.848 E35.8087
G1 X17.263 Y25.257 E35.92671
G1 X16.726 Y25.616 E35.95894
G1 X14.715 Y26.822 E36.07593
G1 X14.145 Y27.127 E36.10818
G1 X12.014 Y28.136 E36.22581
G1 X11.416 Y28.384 E36.25811
G1 X9.203 Y29.177 E36.37539
G1 X8.582 Y29.366 E36.40777
G1 X6.289 Y29.941 E36.52571
G1 X5.649 Y30.068 E36.55827
G1 X3.314 Y30.413 E36.67603
G1 X2.675 Y30.476 E36.70806
G1 X0.328 Y30.592 E36.8253
G1 X-0.323 Y30.592 E36.85777
G1 X-2.677 Y30.476 E36.97536
G1 X-3.316 Y30.413 E37.00739
G1 X-5.646 Y30.069 E37.1249
G1 X-6.287 Y29.942 E37.1575
G1 X-8.569 Y29.37 E37.27487
G1 X-9.19 Y29.181 E37.30725
G1 X-11.412 Y28.385 E37.42501
G1 X-12.008 Y28.138 E37.4572
G1 X-14.137 Y27.131 E37.57469
G1 X-14.709 Y26.825 E37.60706
G1 X-16.722 Y25.618 E37.72416
G1 X-17.259 Y25.259 E37.75638
G1 X-19.159 Y23.85 E37.8744
G1 X-19.658 Y23.441 E37.90658
G1 X-21.403 Y21.861 E38.02403
G1 X-21.864 Y21.401 E38.05652
G1 X-23.438 Y19.664 E38.17346
G1 X-23.848 Y19.163 E38.20576
G1 X-25.257 Y17.263 E38.32377
G1 X-25.618 Y16.724 E38.35614
G1 X-26.828 Y14.704 E38.47361
G1 X-27.131 Y14.136 E38.50573
G1 X-28.136 Y12.013 E38.62292
