;FLAVOR:RepRap
;TIME:1640
;Filament used: 1.38319m
;Layer height: 0.15
;Generated with Cura_SteamEngine 0.0.0-master
M104 S200
M109 S200
;Sliced at: Thu 27-08-2020 14:10:32 
 ;Basic settings: Layer height: 0.15 Walls: 1.2 Fill: {fill_density} 
 ;Print time: 00:27:21 
 ;Filament used: [1.38]m [4.125430048828125]g 
 ;Filament cost: [0] 
 ;M190 S60 ;Uncomment to add your own bed temperature line 
 ;M109 S200 ;Uncomment to add your own temperature line 
 G21        ;metric values 
 G90        ;absolute positioning 
 M82        ;set extruder to absolute mode 
 M107       ;start with the fan off 
 G28 X0 Y0  ;move X/Y to min endstops 
 G28 Z0     ;move Z to min endstops 
 G1 Z15.0 F3000 ;move the platform down 15mm 
 G92 E0                  ;zero the extruded length 
 G1 F3000 E3              ;extrude 3mm of feed stock 
 G92 E0                  ;zero the extruded length again 
 G1 F3000 
 ;Put printing message on LCD screen 
 M117 Printing...
;LAYER_COUNT:100
;LAYER:0
M107
G0 F3600 X20.47 Y-3.613 Z0.299
;TYPE:SKIRT
G1 F1800 X20.621 Y-2.676 E0.04735
G1 X20.746 Y-1.417 E0.11047
G1 X20.784 Y-0.646 E0.14898
G1 X20.784 Y0.64 E0.21314
G1 X20.746 Y1.409 E0.25155
G1 X20.62 Y2.681 E0.31532
G1 X20.509 Y3.427 E0.35295
G1 X20.265 Y4.659 E0.41561
G1 X20.08 Y5.404 E0.45391
G1 X19.708 Y6.633 E0.51797
G1 X19.451 Y7.352 E0.55606
G1 X18.965 Y8.528 E0.61955
G1 X18.639 Y9.219 E0.65767
G1 X18.038 Y10.346 E0.72139
G1 X17.642 Y11.007 E0.75983
G1 X16.933 Y12.069 E0.82354
G1 X16.483 Y12.678 E0.86131
G1 X15.677 Y13.663 E0.92481
G1 X15.152 Y14.241 E0.96377
G1 X14.239 Y15.153 E1.02815
G1 X13.676 Y15.664 E1.06608
G1 X12.699 Y16.466 E1.12914
G1 X12.084 Y16.922 E1.16734
G1 X11.023 Y17.631 E1.231
G1 X10.375 Y18.02 E1.26871
G1 X9.243 Y18.627 E1.33279
G1 X8.54 Y18.96 E1.3716
G1 X7.361 Y19.448 E1.43526
G1 X6.636 Y19.707 E1.47367
G1 X5.416 Y20.076 E1.53726
G1 X4.679 Y20.26 E1.57516
G1 X3.437 Y20.507 E1.63834
G1 X2.691 Y20.618 E1.67596
G1 X1.419 Y20.745 E1.73974
G1 X0.644 Y20.784 E1.77845
G1 X-0.64 Y20.784 E1.84251
G1 X-1.403 Y20.747 E1.88062
G1 X-2.664 Y20.623 E1.94384
G1 X-3.418 Y20.511 E1.98187
G1 X-4.669 Y20.263 E2.0455
G1 X-5.412 Y20.077 E2.08371
G1 X-6.634 Y19.707 E2.14741
G1 X-7.356 Y19.449 E2.18566
G1 X-8.533 Y18.962 E2.24921
G1 X-9.225 Y18.636 E2.28737
G1 X-10.36 Y18.03 E2.35156
G1 X-11.024 Y17.631 E2.39021
G1 X-12.085 Y16.921 E2.4539
G1 X-12.689 Y16.474 E2.49139
G1 X-13.666 Y15.674 E2.55439
G1 X-14.242 Y15.151 E2.5932
G1 X-15.153 Y14.239 E2.65751
G1 X-15.666 Y13.674 E2.69559
G1 X-16.474 Y12.689 E2.75915
G1 X-16.931 Y12.071 E2.7975
G1 X-17.639 Y11.01 E2.86113
G1 X-18.03 Y10.359 E2.89902
G1 X-18.632 Y9.233 E2.96272
G1 X-18.96 Y8.537 E3.00111
G1 X-19.447 Y7.36 E3.06465
G1 X-19.706 Y6.635 E3.10306
G1 X-20.079 Y5.401 E3.16738
G1 X-20.263 Y4.664 E3.20528
G1 X-20.508 Y3.431 E3.26799
G1 X-20.62 Y2.681 E3.30583
G1 X-20.746 Y1.411 E3.3695
G1 X-20.784 Y0.641 E3.40796
G1 X-20.784 Y-0.645 E3.47212
G1 X-20.746 Y-1.414 E3.51053
G1 X-20.621 Y-2.676 E3.5738
G1 X-20.509 Y-3.428 E3.61173
G1 X-20.263 Y-4.665 E3.67465
G1 X-20.079 Y-5.401 E3.7125
G1 X-19.706 Y-6.635 E3.77682
G1 X-19.447 Y-7.36 E3.81523
G1 X-18.96 Y-8.537 E3.87878
G1 X-18.632 Y-9.233 E3.91716
G1 X-18.03 Y-10.359 E3.98087
G1 X-17.639 Y-11.01 E4.01875
G1 X-16.931 Y-12.071 E4.08239
G1 X-16.474 Y-12.689 E4.12073
G1 X-15.666 Y-13.674 E4.18429
G1 X-15.153 Y-14.239 E4.22237
G1 X-14.241 Y-15.152 E4.28675
G1 X-13.665 Y-15.675 E4.32557
G1 X-12.688 Y-16.475 E4.38856
G1 X-12.081 Y-16.924 E4.42623
G1 X-11.019 Y-17.634 E4.48997
G1 X-10.36 Y-18.029 E4.5283
G1 X-9.226 Y-18.635 E4.59244
G1 X-8.529 Y-18.965 E4.63092
G1 X-7.353 Y-19.451 E4.6944
G1 X-6.632 Y-19.708 E4.73259
G1 X-5.412 Y-20.077 E4.79618
G1 X-4.673 Y-20.262 E4.83419
G1 X-3.419 Y-20.511 E4.89797
G1 X-2.664 Y-20.623 E4.93605
G1 X-1.404 Y-20.747 E4.99921
G1 X-0.64 Y-20.784 E5.03737
G1 X0.645 Y-20.784 E5.10148
G1 X1.598 Y-20.726 E5.14912
G1 X3.49 Y-20.493 E5.24422
G1 X4.44 Y-20.315 E5.29244
G1 X5.68 Y-20.003 E5.35623
G1 X6.409 Y-19.781 E5.39425
G1 X7.614 Y-19.349 E5.45812
G1 X8.323 Y-19.055 E5.49641
G1 X9.475 Y-18.509 E5.56001
G1 X10.146 Y-18.15 E5.59798
G1 X11.233 Y-17.498 E5.66122
G1 X11.863 Y-17.077 E5.69902
G1 X12.896 Y-16.312 E5.76315
G1 X13.498 Y-15.818 E5.802
G1 X14.434 Y-14.968 E5.86508
G1 X14.968 Y-14.434 E5.90276
G1 X15.824 Y-13.49 E5.96633
G1 X16.311 Y-12.896 E6.00465
G1 X17.077 Y-11.863 E6.06881
G1 X17.501 Y-11.229 E6.10687
G1 X18.153 Y-10.142 E6.1701
G1 X18.515 Y-9.466 E6.20836
G1 X19.061 Y-8.312 E6.27205
G1 X19.354 Y-7.604 E6.31028
G1 X19.783 Y-6.405 E6.37381
G1 X20.05 Y-5.485 E6.42161
G1 X20.47 Y-3.613 E6.51732
G0 F3600 X20.08 Y-3.525
G1 F1800 X20.223 Y-2.636 E6.56224
G1 X20.348 Y-1.377 E6.62537
G1 X20.384 Y-0.646 E6.66188
G1 X20.384 Y0.64 E6.72604
G1 X20.348 Y1.369 E6.76245
G1 X20.222 Y2.641 E6.82622
G1 X20.117 Y3.35 E6.86198
G1 X19.873 Y4.582 E6.92464
G1 X19.697 Y5.288 E6.96094
G1 X19.325 Y6.517 E7.025
G1 X19.081 Y7.199 E7.06114
G1 X18.595 Y8.375 E7.12462
G1 X18.286 Y9.031 E7.1608
G1 X17.685 Y10.158 E7.22452
G1 X17.309 Y10.785 E7.261
G1 X16.6 Y11.847 E7.3247
G1 X16.173 Y12.424 E7.36051
G1 X15.367 Y13.409 E7.42401
G1 X14.87 Y13.958 E7.46096
G1 X13.957 Y14.87 E7.52534
G1 X13.422 Y15.355 E7.56137
G1 X12.445 Y16.157 E7.62443
G1 X11.861 Y16.59 E7.6607
G1 X10.8 Y17.299 E7.72436
G1 X10.186 Y17.668 E7.7601
G1 X9.054 Y18.275 E7.82418
G1 X8.387 Y18.59 E7.86099
G1 X7.208 Y19.078 E7.92465
G1 X6.52 Y19.324 E7.9611
G1 X5.3 Y19.693 E8.02469
G1 X4.601 Y19.868 E8.06064
G1 X3.359 Y20.115 E8.12381
G1 X2.651 Y20.22 E8.15952
G1 X1.379 Y20.347 E8.2233
G1 X0.644 Y20.384 E8.26001
G1 X-0.64 Y20.384 E8.32407
G1 X-1.364 Y20.348 E8.36024
G1 X-2.625 Y20.224 E8.42345
G1 X-3.34 Y20.119 E8.45951
G1 X-4.591 Y19.871 E8.52313
G1 X-5.296 Y19.694 E8.5594
G1 X-6.518 Y19.324 E8.6231
G1 X-7.203 Y19.08 E8.65938
G1 X-8.38 Y18.593 E8.72292
G1 X-9.036 Y18.283 E8.75912
G1 X-10.171 Y17.677 E8.82331
G1 X-10.801 Y17.299 E8.85997
G1 X-11.862 Y16.589 E8.92366
G1 X-12.435 Y16.164 E8.95925
G1 X-13.412 Y15.364 E9.02225
G1 X-13.959 Y14.869 E9.05906
G1 X-14.87 Y13.957 E9.12337
G1 X-15.356 Y13.42 E9.1595
G1 X-16.164 Y12.435 E9.22306
G1 X-16.598 Y11.849 E9.25944
G1 X-17.306 Y10.788 E9.32308
G1 X-17.677 Y10.17 E9.35904
G1 X-18.279 Y9.044 E9.42274
G1 X-18.591 Y8.384 E9.45916
G1 X-19.078 Y7.207 E9.52271
G1 X-19.323 Y6.519 E9.55915
G1 X-19.696 Y5.285 E9.62346
G1 X-19.871 Y4.586 E9.65941
G1 X-20.116 Y3.353 E9.72213
G1 X-20.222 Y2.642 E9.75799
G1 X-20.348 Y1.372 E9.82167
G1 X-20.384 Y0.641 E9.85818
G1 X-20.384 Y-0.645 E9.92234
G1 X-20.348 Y-1.374 E9.95875
G1 X-20.223 Y-2.636 E10.02202
G1 X-20.117 Y-3.35 E10.05803
G1 X-19.871 Y-4.587 E10.12096
G1 X-19.696 Y-5.285 E10.15686
G1 X-19.323 Y-6.519 E10.22117
G1 X-19.078 Y-7.207 E10.25761
G1 X-18.591 Y-8.384 E10.32116
G1 X-18.279 Y-9.044 E10.35758
G1 X-17.677 Y-10.17 E10.42128
G1 X-17.306 Y-10.788 E10.45724
G1 X-16.598 Y-11.849 E10.52088
G1 X-16.164 Y-12.435 E10.55726
G1 X-15.356 Y-13.42 E10.62082
G1 X-14.87 Y-13.957 E10.65695
G1 X-13.958 Y-14.87 E10.72133
G1 X-13.411 Y-15.365 E10.75814
G1 X-12.434 Y-16.165 E10.82114
G1 X-11.859 Y-16.592 E10.85687
G1 X-10.797 Y-17.302 E10.9206
G1 X-10.172 Y-17.677 E10.95697
G1 X-9.038 Y-18.283 E11.02111
G1 X-8.376 Y-18.595 E11.05763
G1 X-7.2 Y-19.081 E11.12111
G1 X-6.516 Y-19.325 E11.15734
G1 X-5.296 Y-19.694 E11.22093
G1 X-4.595 Y-19.869 E11.25698
G1 X-3.341 Y-20.118 E11.32076
G1 X-2.625 Y-20.224 E11.35687
G1 X-1.365 Y-20.348 E11.42004
G1 X-0.64 Y-20.384 E11.45625
G1 X0.645 Y-20.384 E11.52036
G1 X1.549 Y-20.329 E11.56554
G1 X3.441 Y-20.096 E11.66065
G1 X4.343 Y-19.927 E11.70643
G1 X5.583 Y-19.615 E11.77023
G1 X6.274 Y-19.405 E11.80626
G1 X7.479 Y-18.973 E11.87012
G1 X8.151 Y-18.694 E11.90642
G1 X9.303 Y-18.148 E11.97002
G1 X9.94 Y-17.807 E12.00607
G1 X11.027 Y-17.155 E12.06931
G1 X11.625 Y-16.756 E12.10517
G1 X12.658 Y-15.991 E12.1693
G1 X13.229 Y-15.522 E12.20617
G1 X14.165 Y-14.672 E12.26925
G1 X14.672 Y-14.165 E12.30502
G1 X15.528 Y-13.221 E12.3686
G1 X15.99 Y-12.658 E12.40493
G1 X16.756 Y-11.625 E12.46909
G1 X17.158 Y-11.023 E12.50521
G1 X17.81 Y-9.936 E12.56844
G1 X18.153 Y-9.295 E12.60471
G1 X18.699 Y-8.141 E12.66841
G1 X18.977 Y-7.469 E12.70469
G1 X19.406 Y-6.27 E12.76822
G1 X19.66 Y-5.397 E12.81358
G1 X20.08 Y-3.525 E12.9093
G0 F3600 X19.689 Y-3.437
G1 F1800 X19.825 Y-2.597 E12.95175
G1 X19.95 Y-1.338 E13.01487
G1 X19.984 Y-0.646 E13.04944
G1 X19.984 Y0.64 E13.11359
G1 X19.95 Y1.33 E13.14806
G1 X19.824 Y2.602 E13.21183
G1 X19.725 Y3.272 E13.24562
G1 X19.481 Y4.504 E13.30828
G1 X19.314 Y5.172 E13.34263
G1 X18.942 Y6.401 E13.40669
G1 X18.711 Y7.047 E13.44092
G1 X18.225 Y8.223 E13.50441
G1 X17.933 Y8.843 E13.5386
G1 X17.332 Y9.97 E13.60232
G1 X16.977 Y10.563 E13.6368
G1 X16.268 Y11.625 E13.7005
G1 X15.863 Y12.171 E13.73442
G1 X15.057 Y13.156 E13.79792
G1 X14.587 Y13.675 E13.83285
G1 X13.674 Y14.587 E13.89723
G1 X13.168 Y15.046 E13.93132
G1 X12.191 Y15.848 E13.99438
G1 X11.639 Y16.257 E14.02865
G1 X10.578 Y16.966 E14.09232
G1 X9.997 Y17.315 E14.12613
G1 X8.865 Y17.922 E14.19021
G1 X8.234 Y18.221 E14.22505
G1 X7.055 Y18.709 E14.28871
G1 X6.405 Y18.941 E14.32314
G1 X5.185 Y19.31 E14.38673
G1 X4.523 Y19.476 E14.42078
G1 X3.281 Y19.723 E14.48396
G1 X2.611 Y19.822 E14.51775
G1 X1.339 Y19.949 E14.58152
G1 X0.644 Y19.984 E14.61624
G1 X-0.64 Y19.984 E14.6803
G1 X-1.325 Y19.95 E14.71452
G1 X-2.586 Y19.826 E14.77773
G1 X-3.262 Y19.726 E14.81182
G1 X-4.513 Y19.478 E14.87545
G1 X-5.181 Y19.312 E14.90979
G1 X-6.403 Y18.942 E14.97349
G1 X-7.05 Y18.71 E15.00778
G1 X-8.227 Y18.223 E15.07133
G1 X-8.848 Y17.93 E15.10559
G1 X-9.983 Y17.324 E15.16978
G1 X-10.579 Y16.967 E15.20444
G1 X-11.64 Y16.257 E15.26813
G1 X-12.182 Y15.855 E15.3018
G1 X-13.159 Y15.055 E15.3648
G1 X-13.676 Y14.586 E15.39962
G1 X-14.587 Y13.674 E15.46393
G1 X-15.047 Y13.167 E15.49809
G1 X-15.855 Y12.182 E15.56165
G1 X-16.266 Y11.627 E15.5961
G1 X-16.974 Y10.566 E15.65974
G1 X-17.324 Y9.981 E15.69375
G1 X-17.926 Y8.855 E15.75745
G1 X-18.221 Y8.231 E15.79189
G1 X-18.708 Y7.054 E15.85543
G1 X-18.941 Y6.403 E15.88993
G1 X-19.314 Y5.169 E15.95425
G1 X-19.479 Y4.508 E15.98824
G1 X-19.724 Y3.275 E16.05095
G1 X-19.824 Y2.602 E16.0849
G1 X-19.95 Y1.332 E16.14857
G1 X-19.984 Y0.641 E16.18308
G1 X-19.984 Y-0.645 E16.24724
G1 X-19.95 Y-1.335 E16.28171
G1 X-19.825 Y-2.597 E16.34498
G1 X-19.725 Y-3.272 E16.37902
G1 X-19.479 Y-4.509 E16.44195
G1 X-19.314 Y-5.169 E16.47589
G1 X-18.941 Y-6.403 E16.5402
G1 X-18.708 Y-7.054 E16.5747
G1 X-18.221 Y-8.231 E16.63825
G1 X-17.926 Y-8.855 E16.67268
G1 X-17.324 Y-9.981 E16.73638
G1 X-16.974 Y-10.566 E16.77039
G1 X-16.266 Y-11.627 E16.83403
G1 X-15.855 Y-12.182 E16.86848
G1 X-15.047 Y-13.167 E16.93205
G1 X-14.587 Y-13.674 E16.9662
G1 X-13.675 Y-14.587 E17.03058
G1 X-13.158 Y-15.056 E17.06541
G1 X-12.181 Y-15.856 E17.1284
G1 X-11.636 Y-16.259 E17.16222
G1 X-10.574 Y-16.969 E17.22595
G1 X-9.983 Y-17.324 E17.26035
G1 X-8.849 Y-17.93 E17.3245
G1 X-8.224 Y-18.225 E17.35898
G1 X-7.048 Y-18.711 E17.42246
G1 X-6.401 Y-18.942 E17.45674
G1 X-5.181 Y-19.311 E17.52032
G1 X-4.517 Y-19.477 E17.55447
G1 X-3.263 Y-19.726 E17.61826
G1 X-2.586 Y-19.826 E17.6524
G1 X-1.326 Y-19.95 E17.71556
G1 X-0.64 Y-19.984 E17.74983
G1 X0.645 Y-19.984 E17.81394
G1 X1.501 Y-19.932 E17.85672
G1 X3.393 Y-19.699 E17.95183
G1 X4.245 Y-19.539 E17.99508
G1 X5.485 Y-19.227 E18.05887
G1 X6.139 Y-19.028 E18.09297
G1 X7.344 Y-18.596 E18.15684
G1 X7.98 Y-18.332 E18.19119
G1 X9.132 Y-17.786 E18.2548
G1 X9.735 Y-17.464 E18.2889
G1 X10.822 Y-16.812 E18.35214
G1 X11.387 Y-16.434 E18.38605
G1 X12.42 Y-15.669 E18.45018
G1 X12.96 Y-15.226 E18.48503
G1 X13.896 Y-14.376 E18.54811
G1 X14.376 Y-13.896 E18.58198
G1 X15.232 Y-12.952 E18.64555
G1 X15.669 Y-12.419 E18.67994
G1 X16.435 Y-11.386 E18.7441
G1 X16.815 Y-10.818 E18.77819
G1 X17.467 Y-9.731 E18.84143
G1 X17.792 Y-9.124 E18.87578
G1 X18.338 Y-7.97 E18.93947
G1 X18.601 Y-7.334 E18.97381
G1 X19.03 Y-6.135 E19.03734
G1 X19.269 Y-5.309 E19.08024
G1 X19.689 Y-3.437 E19.17596
G0 F3600 X19.299 Y-3.35
G1 F1800 X19.427 Y-2.557 E19.21603
G1 X19.552 Y-1.298 E19.27915
G1 X19.584 Y-0.646 E19.31172
G1 X19.584 Y0.64 E19.37588
G1 X19.552 Y1.291 E19.4084
G1 X19.426 Y2.563 E19.47217
G1 X19.332 Y3.194 E19.504
G1 X19.088 Y4.426 E19.56665
G1 X18.931 Y5.056 E19.59905
G1 X18.559 Y6.285 E19.66311
G1 X18.342 Y6.894 E19.69536
G1 X17.856 Y8.07 E19.75885
G1 X17.58 Y8.655 E19.79112
G1 X16.979 Y9.782 E19.85484
G1 X16.644 Y10.341 E19.88735
G1 X15.935 Y11.403 E19.95106
G1 X15.554 Y11.918 E19.98302
G1 X14.748 Y12.903 E20.04652
G1 X14.304 Y13.392 E20.07947
G1 X13.391 Y14.304 E20.14385
G1 X12.915 Y14.736 E20.17592
G1 X11.938 Y15.538 E20.23898
G1 X11.417 Y15.925 E20.27136
G1 X10.356 Y16.634 E20.33503
G1 X9.808 Y16.963 E20.36691
G1 X8.676 Y17.57 E20.431
G1 X8.081 Y17.851 E20.46383
G1 X6.902 Y18.339 E20.52749
G1 X6.289 Y18.558 E20.55996
G1 X5.069 Y18.927 E20.62355
G1 X4.445 Y19.083 E20.65564
G1 X3.203 Y19.33 E20.71882
G1 X2.572 Y19.424 E20.75065
G1 X1.3 Y19.551 E20.81442
G1 X0.644 Y19.584 E20.84719
G1 X-0.64 Y19.584 E20.91125
G1 X-1.286 Y19.552 E20.94352
G1 X-2.547 Y19.428 E21.00673
G1 X-3.184 Y19.334 E21.03886
G1 X-4.435 Y19.086 E21.10248
G1 X-5.065 Y18.929 E21.13488
G1 X-6.287 Y18.559 E21.19858
G1 X-6.897 Y18.341 E21.23089
G1 X-8.074 Y17.854 E21.29444
G1 X-8.66 Y17.577 E21.32678
G1 X-9.795 Y16.971 E21.39097
G1 X-10.357 Y16.634 E21.42366
G1 X-11.418 Y15.924 E21.48736
G1 X-11.928 Y15.545 E21.51906
G1 X-12.905 Y14.745 E21.58206
G1 X-13.393 Y14.303 E21.6149
G1 X-14.304 Y13.391 E21.67921
G1 X-14.738 Y12.913 E21.71143
G1 X-15.546 Y11.928 E21.77499
G1 X-15.933 Y11.405 E21.80745
G1 X-16.641 Y10.344 E21.87108
G1 X-16.971 Y9.793 E21.90312
G1 X-17.573 Y8.667 E21.96683
G1 X-17.852 Y8.078 E21.99934
G1 X-18.339 Y6.901 E22.06289
G1 X-18.558 Y6.288 E22.09537
G1 X-18.931 Y5.054 E22.15968
G1 X-19.086 Y4.43 E22.19176
G1 X-19.331 Y3.197 E22.25448
G1 X-19.426 Y2.563 E22.28646
G1 X-19.552 Y1.293 E22.35013
G1 X-19.584 Y0.641 E22.3827
G1 X-19.584 Y-0.645 E22.44686
G1 X-19.552 Y-1.296 E22.47937
G1 X-19.427 Y-2.558 E22.54264
G1 X-19.332 Y-3.194 E22.57473
G1 X-19.086 Y-4.431 E22.63765
G1 X-18.931 Y-5.054 E22.66968
G1 X-18.558 Y-6.288 E22.73399
G1 X-18.339 Y-6.901 E22.76647
G1 X-17.852 Y-8.078 E22.83002
G1 X-17.573 Y-8.667 E22.86253
G1 X-16.971 Y-9.793 E22.92623
G1 X-16.641 Y-10.344 E22.95828
G1 X-15.933 Y-11.405 E23.02191
G1 X-15.546 Y-11.928 E23.05437
G1 X-14.738 Y-12.913 E23.11793
G1 X-14.304 Y-13.391 E23.15014
G1 X-13.392 Y-14.304 E23.21453
G1 X-12.904 Y-14.746 E23.24737
G1 X-11.927 Y-15.546 E23.31037
G1 X-11.414 Y-15.927 E23.34225
G1 X-10.352 Y-16.637 E23.40599
G1 X-9.795 Y-16.971 E23.43839
G1 X-8.661 Y-17.577 E23.50254
G1 X-8.071 Y-17.856 E23.5351
G1 X-6.895 Y-18.342 E23.59858
G1 X-6.285 Y-18.559 E23.63088
G1 X-5.065 Y-18.928 E23.69447
G1 X-4.439 Y-19.085 E23.72667
G1 X-3.185 Y-19.334 E23.79045
G1 X-2.546 Y-19.428 E23.82268
G1 X-1.286 Y-19.552 E23.88584
G1 X-0.64 Y-19.584 E23.91811
G1 X0.645 Y-19.584 E23.98222
G1 X1.452 Y-19.535 E24.02255
G1 X3.344 Y-19.302 E24.11766
G1 X4.147 Y-19.152 E24.15841
G1 X5.387 Y-18.84 E24.22221
G1 X6.004 Y-18.652 E24.25439
G1 X7.209 Y-18.22 E24.31825
G1 X7.809 Y-17.971 E24.35066
G1 X8.961 Y-17.425 E24.41426
G1 X9.529 Y-17.121 E24.4464
G1 X10.616 Y-16.469 E24.50964
G1 X11.149 Y-16.113 E24.54162
G1 X12.182 Y-15.348 E24.60575
G1 X12.691 Y-14.93 E24.63861
G1 X13.627 Y-14.08 E24.70169
G1 X14.079 Y-13.627 E24.73361
G1 X14.935 Y-12.683 E24.79719
G1 X15.347 Y-12.181 E24.82959
G1 X16.113 Y-11.148 E24.89375
G1 X16.472 Y-10.612 E24.92593
G1 X17.124 Y-9.525 E24.98917
G1 X17.43 Y-8.953 E25.02154
G1 X17.976 Y-7.799 E25.08523
G1 X18.224 Y-7.199 E25.11762
G1 X18.653 Y-6 E25.18115
G1 X18.879 Y-5.222 E25.22157
G1 X19.299 Y-3.35 E25.31729
G0 F3600 X18.909 Y-3.262
G1 F1800 X19.029 Y-2.518 E25.35488
G1 X19.154 Y-1.259 E25.418
G1 X19.184 Y-0.646 E25.44862
G1 X19.184 Y0.64 E25.51278
G1 X19.154 Y1.251 E25.5433
G1 X19.028 Y2.523 E25.60707
G1 X18.94 Y3.117 E25.63703
G1 X18.696 Y4.349 E25.69969
G1 X18.548 Y4.94 E25.73009
G1 X18.176 Y6.169 E25.79415
G1 X17.972 Y6.741 E25.82445
G1 X17.486 Y7.917 E25.88793
G1 X17.227 Y8.466 E25.91821
G1 X16.626 Y9.593 E25.98194
