;FLAVOR:RepRap
;TIME:1997
;Filament used: 1.63573m
;Layer height: 0.15
;Generated with Cura_SteamEngine 0.0.0-master
M104 S200
M109 S200
;Sliced at: Mon 07-09-2020 11:05:00 
 ;Basic settings: Layer height: 0.15 Walls: 1.2 Fill: {fill_density} 
 ;Print time: 00:33:18 
 ;Filament used: [1.64]m [4.878644677734376]g 
 ;Filament cost: [0] 
 ;M190 S60 ;Uncomment to add your own bed temperature line 
 ;M109 S200 ;Uncomment to add your own temperature line 
 G21        ;metric values 
 G90        ;absolute positioning 
 M82        ;set extruder to absolute mode 
 M107       ;start with the fan off 
 G28 X0 Y0  ;move X/Y to min endstops 
 G28 Z0     ;move Z to min endstops 
 G1 Z15.0 F3000 ;move the platform down 15mm 
 G92 E0                  ;zero the extruded length 
 G1 F3000 E3              ;extrude 3mm of feed stock 
 G92 E0                  ;zero the extruded length again 
 G1 F3000 
 ;Put printing message on LCD screen 
 M117 Printing...
;LAYER_COUNT:33
;LAYER:0
M107
G0 F3600 X17.8 Y-23.245 Z0.299
;TYPE:SKIRT
G1 F1800 X17.799 Y23.258 E2.32004
G1 X17.759 Y24.047 E2.35946
G1 X17.692 Y24.543 E2.38443
G1 X17.6 Y25.094 E2.4123
G1 X17.431 Y25.865 E2.45168
G1 X17.185 Y26.615 E2.49106
G1 X16.825 Y27.411 E2.53464
G1 X16.573 Y27.895 E2.56186
G1 X16.174 Y28.576 E2.60124
G1 X15.707 Y29.213 E2.64065
G1 X15.12 Y29.859 E2.6842
G1 X14.733 Y30.239 E2.71125
G1 X14.142 Y30.763 E2.75066
G1 X13.501 Y31.224 E2.79005
G1 X12.756 Y31.65 E2.83287
G1 X12.27 Y31.893 E2.85998
G1 X11.547 Y32.209 E2.89934
G1 X10.795 Y32.452 E2.93877
G1 X9.985 Y32.623 E2.98007
G1 X9.447 Y32.707 E3.00724
G1 X8.662 Y32.789 E3.04661
G1 X8.244 Y32.8 E3.06747
G1 X-8.258 Y32.799 E3.89076
G1 X-9.047 Y32.759 E3.93018
G1 X-9.543 Y32.692 E3.95515
G1 X-10.094 Y32.6 E3.98302
G1 X-10.865 Y32.431 E4.0224
G1 X-11.615 Y32.185 E4.06177
G1 X-12.411 Y31.825 E4.10536
G1 X-12.895 Y31.573 E4.13258
G1 X-13.576 Y31.174 E4.17196
G1 X-14.213 Y30.707 E4.21137
G1 X-14.865 Y30.113 E4.25537
G1 X-15.247 Y29.723 E4.28261
G1 X-15.771 Y29.132 E4.32201
G1 X-16.231 Y28.49 E4.36141
G1 X-16.654 Y27.747 E4.40407
G1 X-16.895 Y27.264 E4.431
G1 X-17.212 Y26.541 E4.47038
G1 X-17.453 Y25.789 E4.50978
G1 X-17.622 Y24.987 E4.55067
G1 X-17.706 Y24.45 E4.57779
G1 X-17.789 Y23.665 E4.61717
G1 X-17.8 Y23.245 E4.63813
G1 X-17.799 Y-23.258 E6.95818
G1 X-17.759 Y-24.047 E6.99759
G1 X-17.692 Y-24.543 E7.02256
G1 X-17.6 Y-25.094 E7.05043
G1 X-17.431 Y-25.865 E7.08981
G1 X-17.185 Y-26.615 E7.12919
G1 X-16.825 Y-27.411 E7.17277
G1 X-16.573 Y-27.895 E7.2
G1 X-16.174 Y-28.576 E7.23937
G1 X-15.707 Y-29.213 E7.27878
G1 X-15.12 Y-29.859 E7.32233
G1 X-14.733 Y-30.239 E7.34939
G1 X-14.142 Y-30.763 E7.38879
G1 X-13.501 Y-31.224 E7.42818
G1 X-12.756 Y-31.65 E7.471
G1 X-12.27 Y-31.893 E7.49811
G1 X-11.547 Y-32.209 E7.53747
G1 X-10.795 Y-32.452 E7.5769
G1 X-9.985 Y-32.623 E7.6182
G1 X-9.447 Y-32.707 E7.64537
G1 X-8.662 Y-32.789 E7.68474
G1 X-8.244 Y-32.8 E7.70561
G1 X8.258 Y-32.799 E8.52889
G1 X9.047 Y-32.759 E8.56831
G1 X9.543 Y-32.692 E8.59328
G1 X10.094 Y-32.6 E8.62115
G1 X10.865 Y-32.431 E8.66053
G1 X11.615 Y-32.185 E8.69991
G1 X12.411 Y-31.825 E8.74349
G1 X12.895 Y-31.573 E8.77071
G1 X13.576 Y-31.174 E8.81009
G1 X14.213 Y-30.707 E8.8495
G1 X14.859 Y-30.12 E8.89304
G1 X15.239 Y-29.733 E8.9201
G1 X15.763 Y-29.142 E8.95951
G1 X16.224 Y-28.501 E8.9989
G1 X16.65 Y-27.756 E9.04172
G1 X16.893 Y-27.27 E9.06882
G1 X17.209 Y-26.547 E9.10819
G1 X17.452 Y-25.795 E9.14762
G1 X17.622 Y-24.987 E9.18881
G1 X17.706 Y-24.45 E9.21593
G1 X17.789 Y-23.665 E9.25531
G1 X17.8 Y-23.245 E9.27627
G0 F3600 X17.4 Y-23.245
G1 F1800 X17.399 Y23.258 E11.59632
G1 X17.359 Y24.026 E11.63468
G1 X17.298 Y24.477 E11.65739
G1 X17.206 Y25.028 E11.68526
G1 X17.04 Y25.779 E11.72363
G1 X16.797 Y26.509 E11.76202
G1 X16.471 Y27.226 E11.80131
G1 X16.219 Y27.71 E11.82853
G1 X15.828 Y28.373 E11.86694
G1 X15.372 Y28.992 E11.90529
G1 X14.84 Y29.573 E11.94459
G1 X14.453 Y29.953 E11.97165
G1 X13.877 Y30.463 E12.01004
G1 X13.251 Y30.91 E12.04841
G1 X12.577 Y31.292 E12.08706
G1 X12.091 Y31.535 E12.11417
G1 X11.386 Y31.843 E12.15255
G1 X10.653 Y32.075 E12.19091
G1 X9.924 Y32.227 E12.22806
G1 X9.386 Y32.311 E12.25523
G1 X8.244 Y32.4 E12.31238
G1 X-8.258 Y32.399 E13.13567
G1 X-9.027 Y32.359 E13.17408
G1 X-9.477 Y32.298 E13.19674
G1 X-10.028 Y32.206 E13.22461
G1 X-10.779 Y32.04 E13.26298
G1 X-11.509 Y31.797 E13.30137
G1 X-12.226 Y31.471 E13.34066
G1 X-12.71 Y31.219 E13.36788
G1 X-13.373 Y30.828 E13.40629
G1 X-13.992 Y30.372 E13.44464
G1 X-14.58 Y29.833 E13.48444
G1 X-14.962 Y29.443 E13.51167
G1 X-15.47 Y28.866 E13.55003
G1 X-15.917 Y28.24 E13.5884
G1 X-16.297 Y27.569 E13.62688
G1 X-16.538 Y27.086 E13.65381
G1 X-16.845 Y26.381 E13.69217
G1 X-17.077 Y25.648 E13.73053
G1 X-17.227 Y24.926 E13.76732
G1 X-17.311 Y24.389 E13.79443
G1 X-17.4 Y23.245 E13.85168
G1 X-17.399 Y-23.258 E16.17172
G1 X-17.359 Y-24.026 E16.21009
G1 X-17.298 Y-24.477 E16.2328
G1 X-17.206 Y-25.028 E16.26067
G1 X-17.04 Y-25.779 E16.29904
G1 X-16.797 Y-26.509 E16.33742
G1 X-16.471 Y-27.226 E16.37672
G1 X-16.219 Y-27.71 E16.40394
G1 X-15.828 Y-28.373 E16.44234
G1 X-15.372 Y-28.992 E16.4807
G1 X-14.84 Y-29.573 E16.52
G1 X-14.453 Y-29.953 E16.54706
G1 X-13.877 Y-30.463 E16.58544
G1 X-13.251 Y-30.91 E16.62382
G1 X-12.577 Y-31.292 E16.66247
G1 X-12.091 Y-31.535 E16.68958
G1 X-11.386 Y-31.843 E16.72796
G1 X-10.653 Y-32.075 E16.76632
G1 X-9.924 Y-32.227 E16.80347
G1 X-9.386 Y-32.311 E16.83064
G1 X-8.244 Y-32.4 E16.88778
G1 X8.258 Y-32.399 E17.71107
G1 X9.027 Y-32.359 E17.74949
G1 X9.477 Y-32.298 E17.77215
G1 X10.028 Y-32.206 E17.80002
G1 X10.779 Y-32.04 E17.83839
G1 X11.509 Y-31.797 E17.87677
G1 X12.226 Y-31.471 E17.91607
G1 X12.71 Y-31.219 E17.94329
G1 X13.373 Y-30.828 E17.98169
G1 X13.992 Y-30.372 E18.02005
G1 X14.573 Y-29.84 E18.05935
G1 X14.953 Y-29.453 E18.08641
G1 X15.463 Y-28.877 E18.12479
G1 X15.91 Y-28.251 E18.16317
G1 X16.292 Y-27.577 E18.20182
G1 X16.535 Y-27.091 E18.22893
G1 X16.843 Y-26.386 E18.26731
G1 X17.075 Y-25.653 E18.30567
G1 X17.227 Y-24.926 E18.34272
G1 X17.311 Y-24.389 E18.36984
G1 X17.4 Y-23.245 E18.42709
G0 F3600 X17 Y-23.245
G1 F1800 X16.999 Y23.258 E20.74713
G1 X16.959 Y24.005 E20.78445
G1 X16.903 Y24.411 E20.8049
G1 X16.811 Y24.962 E20.83277
G1 X16.649 Y25.692 E20.87008
G1 X16.41 Y26.401 E20.9074
G1 X16.116 Y27.042 E20.94259
G1 X15.864 Y27.526 E20.96981
G1 X15.483 Y28.17 E21.00714
G1 X15.036 Y28.77 E21.04447
G1 X14.559 Y29.288 E21.0796
G1 X14.172 Y29.668 E21.10666
G1 X13.611 Y30.163 E21.14399
G1 X13.001 Y30.595 E21.18128
G1 X12.398 Y30.934 E21.21579
G1 X11.912 Y31.177 E21.2429
G1 X11.226 Y31.475 E21.28021
G1 X10.513 Y31.699 E21.3175
G1 X9.862 Y31.832 E21.35065
G1 X9.324 Y31.916 E21.37781
G1 X8.244 Y32 E21.43186
G1 X-8.258 Y31.999 E22.25515
G1 X-9.005 Y31.959 E22.29247
G1 X-9.411 Y31.903 E22.31291
G1 X-9.962 Y31.811 E22.34078
G1 X-10.692 Y31.649 E22.37809
G1 X-11.401 Y31.41 E22.41542
G1 X-12.042 Y31.116 E22.4506
G1 X-12.526 Y30.864 E22.47783
G1 X-13.17 Y30.483 E22.51516
G1 X-13.77 Y30.036 E22.55248
G1 X-14.294 Y29.553 E22.58804
G1 X-14.676 Y29.163 E22.61527
G1 X-15.17 Y28.602 E22.65257
G1 X-15.601 Y27.99 E22.68991
G1 X-15.939 Y27.39 E22.72427
G1 X-16.18 Y26.907 E22.7512
G1 X-16.477 Y26.221 E22.78849
G1 X-16.7 Y25.507 E22.82581
G1 X-16.832 Y24.864 E22.85856
G1 X-16.916 Y24.327 E22.88568
G1 X-17 Y23.245 E22.93982
G1 X-16.999 Y-23.258 E25.25986
G1 X-16.959 Y-24.005 E25.29719
G1 X-16.903 Y-24.411 E25.31763
G1 X-16.811 Y-24.962 E25.3455
G1 X-16.649 Y-25.692 E25.38281
G1 X-16.41 Y-26.401 E25.42014
G1 X-16.116 Y-27.042 E25.45532
G1 X-15.864 Y-27.526 E25.48254
G1 X-15.483 Y-28.17 E25.51987
G1 X-15.036 Y-28.77 E25.5572
G1 X-14.559 Y-29.288 E25.59233
G1 X-14.172 Y-29.668 E25.61939
G1 X-13.611 Y-30.163 E25.65672
G1 X-13.001 Y-30.595 E25.69401
G1 X-12.398 Y-30.934 E25.72852
G1 X-11.912 Y-31.177 E25.75563
G1 X-11.226 Y-31.475 E25.79295
G1 X-10.513 Y-31.699 E25.83023
G1 X-9.862 Y-31.832 E25.86338
G1 X-9.324 Y-31.916 E25.89055
G1 X-8.244 Y-32 E25.94459
G1 X8.258 Y-31.999 E26.76788
G1 X9.005 Y-31.959 E26.8052
G1 X9.411 Y-31.903 E26.82565
G1 X9.962 Y-31.811 E26.85352
G1 X10.692 Y-31.649 E26.89082
G1 X11.401 Y-31.41 E26.92815
G1 X12.042 Y-31.116 E26.96333
G1 X12.526 Y-30.864 E26.99056
G1 X13.17 Y-30.483 E27.02789
G1 X13.77 Y-30.036 E27.06522
G1 X14.288 Y-29.559 E27.10035
G1 X14.668 Y-29.172 E27.12741
G1 X15.163 Y-28.611 E27.16473
G1 X15.595 Y-28.001 E27.20203
G1 X15.934 Y-27.398 E27.23654
G1 X16.177 Y-26.912 E27.26365
G1 X16.475 Y-26.226 E27.30096
G1 X16.699 Y-25.513 E27.33825
G1 X16.832 Y-24.864 E27.3713
G1 X16.916 Y-24.327 E27.39841
G1 X17 Y-23.245 E27.45256
G0 F3600 X16.6 Y-23.245
G1 F1800 X16.599 Y23.258 E29.7726
G1 X16.559 Y23.983 E29.80883
G1 X16.509 Y24.345 E29.82706
G1 X16.417 Y24.896 E29.85493
G1 X16.258 Y25.605 E29.89118
G1 X16.022 Y26.292 E29.92742
G1 X15.761 Y26.857 E29.95847
G1 X15.509 Y27.341 E29.98569
G1 X15.139 Y27.966 E30.02193
G1 X14.702 Y28.546 E30.05816
G1 X14.279 Y29.002 E30.08919
G1 X13.892 Y29.382 E30.11625
G1 X13.347 Y29.862 E30.15248
G1 X12.752 Y30.279 E30.18873
G1 X12.22 Y30.576 E30.21913
G1 X11.734 Y30.819 E30.24624
G1 X11.067 Y31.108 E30.2825
G1 X10.373 Y31.321 E30.31872
G1 X9.8 Y31.437 E30.34789
G1 X9.262 Y31.521 E30.37506
G1 X8.244 Y31.6 E30.426
G1 X-8.258 Y31.599 E31.24928
G1 X-8.984 Y31.559 E31.28556
G1 X-9.345 Y31.509 E31.30374
G1 X-9.896 Y31.417 E31.33161
G1 X-10.605 Y31.258 E31.36786
G1 X-11.292 Y31.022 E31.4041
G1 X-11.857 Y30.761 E31.43515
G1 X-12.341 Y30.509 E31.46238
G1 X-12.966 Y30.139 E31.49861
G1 X-13.546 Y29.702 E31.53484
G1 X-14.008 Y29.273 E31.5663
G1 X-14.39 Y28.883 E31.59353
G1 X-14.869 Y28.337 E31.62977
G1 X-15.285 Y27.742 E31.66599
G1 X-15.581 Y27.212 E31.69628
G1 X-15.822 Y26.729 E31.72321
G1 X-16.11 Y26.062 E31.75945
G1 X-16.323 Y25.367 E31.79572
G1 X-16.437 Y24.802 E31.82447
G1 X-16.521 Y24.265 E31.85159
G1 X-16.6 Y23.245 E31.90263
G1 X-16.599 Y-23.258 E34.22268
G1 X-16.559 Y-23.983 E34.2589
G1 X-16.509 Y-24.345 E34.27713
G1 X-16.417 Y-24.896 E34.305
G1 X-16.258 Y-25.605 E34.34125
G1 X-16.022 Y-26.292 E34.37749
G1 X-15.761 Y-26.857 E34.40854
G1 X-15.509 Y-27.341 E34.43577
G1 X-15.139 Y-27.966 E34.472
G1 X-14.702 Y-28.546 E34.50823
G1 X-14.279 Y-29.002 E34.53927
G1 X-13.892 Y-29.382 E34.56632
G1 X-13.347 Y-29.862 E34.60256
G1 X-12.752 Y-30.279 E34.63881
G1 X-12.22 Y-30.576 E34.6692
G1 X-11.734 Y-30.819 E34.69631
G1 X-11.067 Y-31.108 E34.73258
G1 X-10.373 Y-31.321 E34.7688
G1 X-9.8 Y-31.437 E34.79796
G1 X-9.262 Y-31.521 E34.82513
G1 X-8.244 Y-31.6 E34.87607
G1 X8.258 Y-31.599 E35.69936
G1 X8.984 Y-31.559 E35.73563
G1 X9.345 Y-31.509 E35.75382
G1 X9.896 Y-31.417 E35.78169
G1 X10.605 Y-31.258 E35.81794
G1 X11.292 Y-31.022 E35.85418
G1 X11.857 Y-30.761 E35.88523
G1 X12.341 Y-30.509 E35.91245
G1 X12.966 Y-30.139 E35.94869
G1 X13.546 Y-29.702 E35.98492
G1 X14.002 Y-29.279 E36.01595
G1 X14.382 Y-28.892 E36.04301
G1 X14.862 Y-28.347 E36.07924
G1 X15.279 Y-27.752 E36.11549
G1 X15.576 Y-27.22 E36.14589
G1 X15.819 Y-26.734 E36.17299
G1 X16.108 Y-26.067 E36.20926
G1 X16.321 Y-25.373 E36.24548
G1 X16.437 Y-24.802 E36.27455
G1 X16.521 Y-24.265 E36.30166
G1 X16.6 Y-23.245 E36.3527
G0 F3600 X16.2 Y-23.245
G1 F1800 X16.199 Y23.258 E38.67275
G1 X16.114 Y24.279 E38.72386
G1 X16.022 Y24.83 E38.75173
G1 X15.867 Y25.517 E38.78687
G1 X15.635 Y26.181 E38.82196
G1 X15.406 Y26.672 E38.84899
G1 X15.154 Y27.156 E38.87621
G1 X14.794 Y27.761 E38.91134
G1 X14.368 Y28.321 E38.94644
G1 X13.999 Y28.717 E38.97344
G1 X13.612 Y29.097 E39.0005
G1 X13.082 Y29.561 E39.03565
G1 X12.504 Y29.962 E39.07074
G1 X12.041 Y30.218 E39.09714
G1 X11.555 Y30.461 E39.12425
G1 X10.908 Y30.74 E39.1594
G1 X10.234 Y30.944 E39.19453
G1 X9.738 Y31.042 E39.21976
G1 X9.2 Y31.126 E39.24692
G1 X8.244 Y31.2 E39.29476
G1 X-8.258 Y31.199 E40.11805
G1 X-9.279 Y31.114 E40.16916
G1 X-9.83 Y31.022 E40.19703
G1 X-10.517 Y30.867 E40.23217
G1 X-11.181 Y30.635 E40.26726
G1 X-11.672 Y30.406 E40.29429
G1 X-12.156 Y30.154 E40.32151
G1 X-12.761 Y29.794 E40.35663
G1 X-13.321 Y29.368 E40.39174
G1 X-13.722 Y28.993 E40.41913
G1 X-14.104 Y28.603 E40.44636
G1 X-14.568 Y28.073 E40.48151
G1 X-14.968 Y27.494 E40.51662
G1 X-15.223 Y27.033 E40.5429
G1 X-15.464 Y26.55 E40.56983
G1 X-15.742 Y25.903 E40.60496
G1 X-15.945 Y25.229 E40.64008
G1 X-16.042 Y24.74 E40.66495
G1 X-16.126 Y24.203 E40.69207
G1 X-16.2 Y23.245 E40.74001
G1 X-16.199 Y-23.258 E43.06005
G1 X-16.114 Y-24.279 E43.11117
G1 X-16.022 Y-24.83 E43.13904
G1 X-15.867 Y-25.517 E43.17417
G1 X-15.635 Y-26.181 E43.20926
G1 X-15.406 Y-26.672 E43.23629
G1 X-15.154 Y-27.156 E43.26352
G1 X-14.794 Y-27.761 E43.29864
G1 X-14.368 Y-28.321 E43.33374
G1 X-13.999 Y-28.717 E43.36075
G1 X-13.612 Y-29.097 E43.38781
G1 X-13.082 Y-29.561 E43.42295
G1 X-12.504 Y-29.962 E43.45805
G1 X-12.041 Y-30.218 E43.48444
G1 X-11.555 Y-30.461 E43.51155
G1 X-10.908 Y-30.74 E43.5467
G1 X-10.234 Y-30.944 E43.58183
G1 X-9.738 Y-31.042 E43.60706
G1 X-9.2 Y-31.126 E43.63422
G1 X-8.244 Y-31.2 E43.68206
G1 X8.258 Y-31.199 E44.50535
G1 X9.279 Y-31.114 E44.55646
G1 X9.83 Y-31.022 E44.58433
G1 X10.517 Y-30.867 E44.61947
G1 X11.181 Y-30.635 E44.65456
G1 X11.672 Y-30.406 E44.68159
G1 X12.156 Y-30.154 E44.70881
G1 X12.761 Y-29.794 E44.74394
G1 X13.321 Y-29.368 E44.77904
G1 X13.717 Y-28.999 E44.80605
G1 X14.097 Y-28.612 E44.8331
G1 X14.561 Y-28.082 E44.86825
G1 X14.962 Y-27.504 E44.90334
G1 X15.218 Y-27.041 E44.92974
G1 X15.461 Y-26.555 E44.95685
G1 X15.74 Y-25.908 E44.992
G1 X15.944 Y-25.234 E45.02713
G1 X16.042 Y-24.74 E45.05226
G1 X16.126 Y-24.203 E45.07938
G1 X16.2 Y-23.245 E45.12731
G0 F3600 X15.8 Y-23.245
G1 F1800 X15.799 Y23.258 E47.44736
G1 X15.72 Y24.213 E47.49516
G1 X15.628 Y24.764 E47.52303
G1 X15.476 Y25.428 E47.55702
G1 X15.248 Y26.07 E47.59101
G1 X15.051 Y26.488 E47.61406
G1 X14.799 Y26.972 E47.64129
G1 X14.45 Y27.556 E47.67523
G1 X14.035 Y28.095 E47.70917
G1 X13.719 Y28.431 E47.73218
G1 X13.332 Y28.811 E47.75924
G1 X12.819 Y29.259 E47.79322
G1 X12.257 Y29.644 E47.8272
G1 X11.862 Y29.861 E47.84969
G1 X11.376 Y30.104 E47.8768
G1 X10.75 Y30.372 E47.91077
G1 X10.097 Y30.565 E47.94474
G1 X9.677 Y30.647 E47.96609
G1 X9.139 Y30.731 E47.99326
G1 X8.244 Y30.8 E48.03804
G1 X-8.258 Y30.799 E48.86133
G1 X-9.213 Y30.72 E48.90914
G1 X-9.764 Y30.628 E48.93701
G1 X-10.428 Y30.476 E48.97099
G1 X-11.07 Y30.248 E49.00498
G1 X-11.488 Y30.051 E49.02803
G1 X-11.972 Y29.799 E49.05526
G1 X-12.556 Y29.45 E49.0892
G1 X-13.095 Y29.035 E49.12314
G1 X-13.436 Y28.714 E49.1465
G1 X-13.818 Y28.324 E49.17374
G1 X-14.266 Y27.81 E49.20775
G1 X-14.649 Y27.248 E49.24169
G1 X-14.865 Y26.855 E49.26406
G1 X-15.106 Y26.372 E49.29099
G1 X-15.374 Y25.745 E49.32501
G1 X-15.566 Y25.092 E49.35896
G1 X-15.646 Y24.678 E49.38
G1 X-15.73 Y24.141 E49.40712
G1 X-15.8 Y23.245 E49.45196
G1 X-15.799 Y-23.258 E51.772
G1 X-15.72 Y-24.213 E51.81981
G1 X-15.628 Y-24.764 E51.84768
G1 X-15.476 Y-25.428 E51.88166
G1 X-15.248 Y-26.07 E51.91565
G1 X-15.051 Y-26.488 E51.93871
G1 X-14.799 Y-26.972 E51.96593
G1 X-14.45 Y-27.556 E51.99987
G1 X-14.035 Y-28.095 E52.03381
G1 X-13.719 Y-28.431 E52.05682
G1 X-13.332 Y-28.811 E52.08388
G1 X-12.819 Y-29.259 E52.11786
G1 X-12.257 Y-29.644 E52.15185
G1 X-11.862 Y-29.861 E52.17433
G1 X-11.376 Y-30.104 E52.20144
G1 X-10.75 Y-30.372 E52.23541
G1 X-10.097 Y-30.565 E52.26938
G1 X-9.677 Y-30.647 E52.29073
G1 X-9.139 Y-30.731 E52.3179
G1 X-8.244 Y-30.8 E52.36268
G1 X8.258 Y-30.799 E53.18597
G1 X9.213 Y-30.72 E53.23378
G1 X9.764 Y-30.628 E53.26165
G1 X10.428 Y-30.476 E53.29563
G1 X11.07 Y-30.248 E53.32962
G1 X11.488 Y-30.051 E53.35268
G1 X11.972 Y-29.799 E53.3799
G1 X12.556 Y-29.45 E53.41384
G1 X13.095 Y-29.035 E53.44778
G1 X13.431 Y-28.719 E53.47079
G1 X13.811 Y-28.332 E53.49785
G1 X14.259 Y-27.819 E53.53183
G1 X14.644 Y-27.257 E53.56582
G1 X14.861 Y-26.862 E53.5883
G1 X15.104 Y-26.376 E53.61541
G1 X15.372 Y-25.75 E53.64938
G1 X15.565 Y-25.097 E53.68336
G1 X15.646 Y-24.678 E53.70465
G1 X15.73 Y-24.141 E53.73176
G1 X15.8 Y-23.245 E53.7766
G0 F3600 X15.4 Y-23.245
G1 F1800 X15.399 Y23.258 E56.09665
G1 X15.325 Y24.147 E56.14115
G1 X15.233 Y24.698 E56.16902
G1 X15.086 Y25.339 E56.20183
G1 X14.862 Y25.956 E56.23458
G1 X14.697 Y26.303 E56.25375
