;FLAVOR:RepRap
;TIME:2996
;Filament used: 2.59467m
;Layer height: 0.15
;Generated with Cura_SteamEngine 0.0.0-master
M104 S200
M109 S200
;Sliced at: Sat 05-09-2020 10:10:17 
 ;Basic settings: Layer height: 0.15 Walls: 1.2 Fill: {fill_density} 
 ;Print time: 00:49:56 
 ;Filament used: [2.59]m [7.7387364648437496]g 
 ;Filament cost: [0] 
 ;M190 S60 ;Uncomment to add your own bed temperature line 
 ;M109 S200 ;Uncomment to add your own temperature line 
 G21        ;metric values 
 G90        ;absolute positioning 
 M82        ;set extruder to absolute mode 
 M107       ;start with the fan off 
 G28 X0 Y0  ;move X/Y to min endstops 
 G28 Z0     ;move Z to min endstops 
 G1 Z15.0 F3000 ;move the platform down 15mm 
 G92 E0                  ;zero the extruded length 
 G1 F3000 E3              ;extrude 3mm of feed stock 
 G92 E0                  ;zero the extruded length again 
 G1 F3000 
 ;Put printing message on LCD screen 
 M117 Printing...
;LAYER_COUNT:46
;LAYER:0
M107
G0 F3600 X21.026 Y25.033 Z0.299
;TYPE:SKIRT
G1 F1800 X20.441 Y25.513 E0.03775
G1 X18.487 Y26.964 E0.15918
G1 X17.847 Y27.392 E0.19759
G1 X15.75 Y28.649 E0.31956
G1 X15.076 Y29.01 E0.35771
G1 X12.867 Y30.055 E0.47963
G1 X12.162 Y30.347 E0.5177
G1 X9.862 Y31.171 E0.63959
G1 X9.127 Y31.394 E0.67791
G1 X6.756 Y31.988 E0.79985
G1 X6.002 Y32.138 E0.83821
G1 X3.584 Y32.496 E0.96016
G1 X2.825 Y32.571 E0.99821
G1 X0.385 Y32.691 E1.12009
G1 X-0.381 Y32.691 E1.1583
G1 X-2.821 Y32.571 E1.28018
G1 X-3.576 Y32.496 E1.31803
G1 X-5.996 Y32.139 E1.44007
G1 X-6.759 Y31.988 E1.47888
G1 X-9.139 Y31.39 E1.60131
G1 X-9.869 Y31.168 E1.63938
G1 X-12.166 Y30.345 E1.76111
G1 X-12.872 Y30.052 E1.79924
G1 X-15.082 Y29.006 E1.92123
G1 X-15.757 Y28.645 E1.95941
G1 X-17.853 Y27.388 E2.08135
G1 X-18.489 Y26.963 E2.11951
G1 X-20.443 Y25.513 E2.2409
G1 X-21.033 Y25.028 E2.27901
G1 X-22.85 Y23.381 E2.40136
G1 X-23.395 Y22.836 E2.43981
G1 X-25.034 Y21.025 E2.56167
G1 X-25.513 Y20.441 E2.59935
G1 X-26.964 Y18.487 E2.72078
G1 X-27.392 Y17.847 E2.75919
G1 X-28.655 Y15.74 E2.88175
G1 X-29.017 Y15.062 E2.92009
G1 X-30.056 Y12.863 E3.04143
G1 X-30.347 Y12.16 E3.07939
G1 X-31.172 Y9.856 E3.20148
G1 X-31.395 Y9.122 E3.23975
G1 X-31.989 Y6.75 E3.36175
G1 X-32.139 Y5.999 E3.39996
G1 X-32.497 Y3.584 E3.52176
G1 X-32.572 Y2.821 E3.56001
G1 X-32.691 Y0.388 E3.68153
G1 X-32.691 Y-0.373 E3.7195
G1 X-32.572 Y-2.813 E3.84138
G1 X-32.497 Y-3.573 E3.87948
G1 X-32.14 Y-5.99 E4.00137
G1 X-31.99 Y-6.746 E4.03982
G1 X-31.395 Y-9.121 E4.16197
G1 X-31.173 Y-9.854 E4.20018
G1 X-30.346 Y-12.164 E4.32259
G1 X-30.052 Y-12.871 E4.36079
G1 X-29.01 Y-15.073 E4.48233
G1 X-28.651 Y-15.746 E4.52039
G1 X-27.391 Y-17.849 E4.6427
G1 X-26.963 Y-18.489 E4.68111
G1 X-25.512 Y-20.444 E4.80257
G1 X-25.029 Y-21.032 E4.84054
G1 X-23.389 Y-22.842 E4.96239
G1 X-22.844 Y-23.387 E5.00084
G1 X-21.026 Y-25.033 E5.1232
G1 X-20.441 Y-25.513 E5.16095
G1 X-18.487 Y-26.964 E5.28237
G1 X-17.847 Y-27.392 E5.32078
G1 X-15.75 Y-28.649 E5.44276
G1 X-15.076 Y-29.01 E5.48091
G1 X-12.867 Y-30.055 E5.60282
G1 X-12.162 Y-30.347 E5.64089
G1 X-9.862 Y-31.171 E5.76278
G1 X-9.127 Y-31.394 E5.8011
G1 X-6.756 Y-31.988 E5.92305
G1 X-6.002 Y-32.138 E5.9614
G1 X-3.584 Y-32.496 E6.08335
G1 X-2.825 Y-32.571 E6.1214
G1 X-0.385 Y-32.691 E6.24328
G1 X0.381 Y-32.691 E6.2815
G1 X2.821 Y-32.571 E6.40338
G1 X3.576 Y-32.497 E6.44122
G1 X5.997 Y-32.14 E6.56332
G1 X6.574 Y-32.032 E6.5926
G1 X7.75 Y-31.767 E6.65274
G1 X8.298 Y-31.622 E6.68102
G1 X10.643 Y-30.911 E6.80328
G1 X11.363 Y-30.654 E6.84142
G1 X13.622 Y-29.719 E6.96339
G1 X14.313 Y-29.393 E7.00151
G1 X16.476 Y-28.238 E7.12384
G1 X17.135 Y-27.843 E7.16217
G1 X19.16 Y-26.49 E7.28368
G1 X19.775 Y-26.034 E7.32187
G1 X21.67 Y-24.479 E7.44417
G1 X22.236 Y-23.966 E7.48228
G1 X23.958 Y-22.245 E7.60374
G1 X24.473 Y-21.677 E7.64199
G1 X26.03 Y-19.78 E7.76443
G1 X26.486 Y-19.165 E7.80263
G1 X27.838 Y-17.142 E7.92402
G1 X28.232 Y-16.484 E7.96228
G1 X29.389 Y-14.319 E8.08475
G1 X29.716 Y-13.629 E8.12285
G1 X30.647 Y-11.382 E8.24419
G1 X30.845 Y-10.851 E8.27247
G1 X31.227 Y-9.699 E8.33302
G1 X31.388 Y-9.146 E8.36175
G1 X31.986 Y-6.767 E8.48413
G1 X32.136 Y-6.012 E8.52254
G1 X32.495 Y-3.597 E8.64434
G1 X32.571 Y-2.833 E8.68265
G1 X32.691 Y-0.39 E8.80468
G1 X32.691 Y0.373 E8.84274
G1 X32.572 Y2.813 E8.96462
G1 X32.497 Y3.573 E9.00272
G1 X32.14 Y5.99 E9.12461
G1 X31.99 Y6.746 E9.16307
G1 X31.395 Y9.121 E9.28522
G1 X31.173 Y9.854 E9.32343
G1 X30.346 Y12.164 E9.44584
G1 X30.052 Y12.871 E9.48404
G1 X29.01 Y15.073 E9.60558
G1 X28.651 Y15.746 E9.64363
G1 X27.391 Y17.849 E9.76594
G1 X26.964 Y18.488 E9.80428
G1 X25.514 Y20.442 E9.92568
G1 X25.03 Y21.031 E9.96371
G1 X23.389 Y22.842 E10.08564
G1 X22.844 Y23.387 E10.12409
G1 X21.026 Y25.033 E10.24644
G0 F3600 X20.758 Y24.737
G1 F1800 X20.203 Y25.192 E10.28225
G1 X18.249 Y26.643 E10.40367
G1 X17.642 Y27.049 E10.4401
G1 X15.545 Y28.306 E10.56208
G1 X14.904 Y28.648 E10.59833
G1 X12.695 Y29.693 E10.72024
G1 X12.027 Y29.97 E10.75632
G1 X9.727 Y30.794 E10.87821
G1 X9.029 Y31.006 E10.9146
G1 X6.658 Y31.6 E11.03655
G1 X5.944 Y31.742 E11.07287
G1 X3.526 Y32.1 E11.19482
G1 X2.805 Y32.171 E11.23096
G1 X0.365 Y32.291 E11.35284
G1 X-0.361 Y32.291 E11.38906
G1 X-2.801 Y32.171 E11.51094
G1 X-3.518 Y32.101 E11.54688
G1 X-5.938 Y31.744 E11.66892
G1 X-6.661 Y31.6 E11.7057
G1 X-9.041 Y31.002 E11.82813
G1 X-9.734 Y30.791 E11.86427
G1 X-12.031 Y29.968 E11.98601
G1 X-12.701 Y29.691 E12.02218
G1 X-14.911 Y28.645 E12.14416
G1 X-15.551 Y28.302 E12.18039
G1 X-17.647 Y27.045 E12.30232
G1 X-18.251 Y26.642 E12.33854
G1 X-20.205 Y25.192 E12.45994
G1 X-20.765 Y24.732 E12.49609
G1 X-22.582 Y23.085 E12.61844
G1 X-23.099 Y22.568 E12.65492
G1 X-24.738 Y20.757 E12.77678
G1 X-25.192 Y20.203 E12.81251
G1 X-26.643 Y18.249 E12.93394
G1 X-27.049 Y17.642 E12.97037
G1 X-28.312 Y15.535 E13.09293
G1 X-28.656 Y14.891 E13.12935
G1 X-29.695 Y12.692 E13.25069
G1 X-29.971 Y12.026 E13.28666
G1 X-30.796 Y9.722 E13.40875
G1 X-31.007 Y9.025 E13.44509
G1 X-31.601 Y6.653 E13.56708
G1 X-31.743 Y5.94 E13.60335
G1 X-32.101 Y3.525 E13.72515
G1 X-32.172 Y2.802 E13.76139
G1 X-32.291 Y0.369 E13.88292
G1 X-32.291 Y-0.353 E13.91894
G1 X-32.172 Y-2.793 E14.04082
G1 X-32.102 Y-3.514 E14.07696
G1 X-31.745 Y-5.931 E14.19885
G1 X-31.602 Y-6.648 E14.23533
G1 X-31.007 Y-9.023 E14.35748
G1 X-30.796 Y-9.719 E14.39376
G1 X-29.969 Y-12.029 E14.51617
G1 X-29.691 Y-12.7 E14.55241
G1 X-28.649 Y-14.902 E14.67395
G1 X-28.308 Y-15.54 E14.71004
G1 X-27.048 Y-17.643 E14.83235
G1 X-26.642 Y-18.25 E14.86878
G1 X-25.191 Y-20.205 E14.99024
G1 X-24.733 Y-20.764 E15.0263
G1 X-23.093 Y-22.574 E15.14815
G1 X-22.576 Y-23.091 E15.18463
G1 X-20.758 Y-24.737 E15.30698
G1 X-20.203 Y-25.192 E15.34279
G1 X-18.249 Y-26.643 E15.46421
G1 X-17.642 Y-27.049 E15.50065
G1 X-15.545 Y-28.306 E15.62262
G1 X-14.904 Y-28.648 E15.65887
G1 X-12.695 Y-29.693 E15.78079
G1 X-12.027 Y-29.97 E15.81686
G1 X-9.727 Y-30.794 E15.93875
G1 X-9.029 Y-31.006 E15.97515
G1 X-6.658 Y-31.6 E16.09709
G1 X-5.944 Y-31.742 E16.13341
G1 X-3.526 Y-32.1 E16.25536
G1 X-2.805 Y-32.171 E16.29151
G1 X-0.365 Y-32.291 E16.41338
G1 X0.361 Y-32.291 E16.44961
G1 X2.801 Y-32.171 E16.57148
G1 X3.518 Y-32.101 E16.60743
G1 X5.939 Y-31.744 E16.72952
G1 X6.486 Y-31.642 E16.75728
G1 X7.662 Y-31.377 E16.81742
G1 X8.182 Y-31.24 E16.84425
G1 X10.527 Y-30.529 E16.9665
G1 X11.21 Y-30.284 E17.0027
G1 X13.469 Y-29.349 E17.12467
G1 X14.125 Y-29.04 E17.16085
G1 X16.288 Y-27.885 E17.28318
G1 X16.913 Y-27.51 E17.31955
G1 X18.938 Y-26.157 E17.44105
G1 X19.521 Y-25.725 E17.47725
G1 X21.416 Y-24.17 E17.59955
G1 X21.953 Y-23.683 E17.63572
G1 X23.675 Y-21.962 E17.75718
G1 X24.164 Y-21.423 E17.79349
G1 X25.721 Y-19.526 E17.91592
G1 X26.153 Y-18.943 E17.95213
G1 X27.505 Y-16.92 E18.07352
G1 X27.879 Y-16.296 E18.10981
G1 X29.036 Y-14.131 E18.23228
G1 X29.346 Y-13.476 E18.26843
G1 X30.277 Y-11.229 E18.38978
G1 X30.465 Y-10.725 E18.41662
G1 X30.847 Y-9.573 E18.47717
G1 X31 Y-9.048 E18.50445
G1 X31.598 Y-6.669 E18.62683
G1 X31.741 Y-5.953 E18.66326
G1 X32.1 Y-3.538 E18.78507
G1 X32.171 Y-2.813 E18.82141
G1 X32.291 Y-0.37 E18.94344
G1 X32.291 Y0.353 E18.97951
G1 X32.172 Y2.793 E19.10139
G1 X32.102 Y3.514 E19.13753
G1 X31.745 Y5.931 E19.25942
G1 X31.602 Y6.648 E19.29589
G1 X31.007 Y9.023 E19.41805
G1 X30.796 Y9.719 E19.45433
G1 X29.969 Y12.029 E19.57674
G1 X29.691 Y12.7 E19.61297
G1 X28.649 Y14.902 E19.73451
G1 X28.308 Y15.54 E19.7706
G1 X27.048 Y17.643 E19.89291
G1 X26.643 Y18.25 E19.92932
G1 X25.193 Y20.204 E20.05071
G1 X24.734 Y20.763 E20.0868
G1 X23.093 Y22.574 E20.20872
G1 X22.576 Y23.091 E20.2452
G1 X20.758 Y24.737 E20.36755
G0 F3600 X20.489 Y24.44
G1 F1800 X19.964 Y24.871 E20.40144
G1 X18.01 Y26.322 E20.52287
G1 X17.436 Y26.706 E20.55732
G1 X15.339 Y27.963 E20.6793
G1 X14.733 Y28.287 E20.71358
G1 X12.524 Y29.332 E20.8355
G1 X11.892 Y29.594 E20.86963
G1 X9.592 Y30.418 E20.99152
G1 X8.932 Y30.618 E21.02592
G1 X6.561 Y31.212 E21.14787
G1 X5.885 Y31.347 E21.18226
G1 X3.467 Y31.705 E21.30421
G1 X2.786 Y31.772 E21.33835
G1 X0.346 Y31.892 E21.46023
G1 X-0.342 Y31.892 E21.49455
G1 X-2.782 Y31.772 E21.61643
G1 X-3.46 Y31.705 E21.65042
G1 X-5.88 Y31.348 E21.77246
G1 X-6.564 Y31.212 E21.80726
G1 X-8.944 Y30.614 E21.92969
G1 X-9.599 Y30.415 E21.96384
G1 X-11.896 Y29.592 E22.08557
G1 X-12.53 Y29.329 E22.11982
G1 X-14.74 Y28.283 E22.2418
G1 X-15.345 Y27.959 E22.27604
G1 X-17.441 Y26.702 E22.39797
G1 X-18.012 Y26.32 E22.43225
G1 X-19.966 Y24.87 E22.55364
G1 X-20.496 Y24.435 E22.58785
G1 X-22.313 Y22.788 E22.7102
G1 X-22.802 Y22.299 E22.7447
G1 X-24.441 Y20.488 E22.86656
G1 X-24.871 Y19.964 E22.90038
G1 X-26.322 Y18.01 E23.0218
G1 X-26.706 Y17.436 E23.05625
G1 X-27.969 Y15.329 E23.17881
G1 X-28.294 Y14.72 E23.21325
G1 X-29.333 Y12.521 E23.33459
G1 X-29.594 Y11.891 E23.36861
G1 X-30.419 Y9.587 E23.4907
G1 X-30.619 Y8.927 E23.52511
G1 X-31.213 Y6.555 E23.6471
G1 X-31.347 Y5.881 E23.68139
G1 X-31.705 Y3.466 E23.80319
G1 X-31.773 Y2.782 E23.83748
G1 X-31.892 Y0.349 E23.95901
G1 X-31.892 Y-0.334 E23.99309
G1 X-31.773 Y-2.774 E24.11496
G1 X-31.706 Y-3.456 E24.14915
G1 X-31.349 Y-5.873 E24.27104
G1 X-31.214 Y-6.551 E24.30553
G1 X-30.619 Y-8.926 E24.42768
G1 X-30.419 Y-9.584 E24.462
G1 X-29.592 Y-11.894 E24.5844
G1 X-29.329 Y-12.529 E24.61869
G1 X-28.287 Y-14.731 E24.74023
G1 X-27.965 Y-15.335 E24.77438
G1 X-26.705 Y-17.438 E24.89669
G1 X-26.321 Y-18.012 E24.93114
G1 X-24.87 Y-19.967 E25.05261
G1 X-24.436 Y-20.495 E25.08671
G1 X-22.796 Y-22.305 E25.20856
G1 X-22.307 Y-22.794 E25.24306
G1 X-20.489 Y-24.44 E25.36542
G1 X-19.964 Y-24.871 E25.3993
G1 X-18.01 Y-26.322 E25.52073
G1 X-17.436 Y-26.706 E25.55518
G1 X-15.339 Y-27.963 E25.67716
G1 X-14.733 Y-28.287 E25.71144
G1 X-12.524 Y-29.332 E25.83336
G1 X-11.892 Y-29.594 E25.86749
G1 X-9.592 Y-30.418 E25.98938
G1 X-8.932 Y-30.618 E26.02379
G1 X-6.561 Y-31.212 E26.14573
G1 X-5.885 Y-31.347 E26.18012
G1 X-3.467 Y-31.705 E26.30207
G1 X-2.786 Y-31.772 E26.33621
G1 X-0.346 Y-31.892 E26.45809
G1 X0.342 Y-31.892 E26.49242
G1 X2.782 Y-31.772 E26.6143
G1 X3.459 Y-31.705 E26.64824
G1 X5.88 Y-31.348 E26.77033
G1 X6.398 Y-31.252 E26.79661
G1 X7.574 Y-30.987 E26.85675
G1 X8.066 Y-30.857 E26.88214
G1 X10.411 Y-30.146 E27.00439
G1 X11.057 Y-29.915 E27.03862
G1 X13.316 Y-28.98 E27.16059
G1 X13.936 Y-28.687 E27.19481
G1 X16.099 Y-27.532 E27.31714
G1 X16.691 Y-27.177 E27.35158
G1 X18.716 Y-25.824 E27.47308
G1 X19.267 Y-25.415 E27.50732
G1 X21.162 Y-23.86 E27.62961
G1 X21.67 Y-23.4 E27.66381
G1 X23.392 Y-21.679 E27.78527
G1 X23.855 Y-21.169 E27.81963
G1 X25.412 Y-19.272 E27.94207
G1 X25.821 Y-18.721 E27.9763
G1 X27.173 Y-16.698 E28.0977
G1 X27.527 Y-16.107 E28.13207
G1 X28.684 Y-13.942 E28.25454
G1 X28.977 Y-13.322 E28.28875
G1 X29.908 Y-11.075 E28.41009
G1 X30.085 Y-10.599 E28.43543
G1 X30.467 Y-9.447 E28.49598
G1 X30.612 Y-8.95 E28.52181
G1 X31.21 Y-6.571 E28.64419
G1 X31.345 Y-5.894 E28.67863
G1 X31.704 Y-3.479 E28.80044
G1 X31.772 Y-2.793 E28.83483
G1 X31.892 Y-0.35 E28.95686
G1 X31.892 Y0.334 E28.99099
G1 X31.773 Y2.774 E29.11286
G1 X31.706 Y3.456 E29.14705
G1 X31.349 Y5.873 E29.26894
G1 X31.214 Y6.551 E29.30343
G1 X30.619 Y8.926 E29.42558
G1 X30.419 Y9.584 E29.4599
G1 X29.592 Y11.894 E29.5823
G1 X29.329 Y12.529 E29.61659
G1 X28.287 Y14.731 E29.73813
G1 X27.965 Y15.335 E29.77228
G1 X26.705 Y17.438 E29.89459
G1 X26.321 Y18.011 E29.929
G1 X24.871 Y19.965 E30.0504
G1 X24.437 Y20.494 E30.08453
G1 X22.796 Y22.305 E30.20646
G1 X22.307 Y22.794 E30.24096
G1 X20.489 Y24.44 E30.36332
G0 F3600 X20.221 Y24.144
G1 F1800 X19.726 Y24.55 E30.39525
G1 X17.772 Y26.001 E30.51668
G1 X17.23 Y26.363 E30.5492
G1 X15.133 Y27.62 E30.67117
G1 X14.562 Y27.925 E30.70347
G1 X12.353 Y28.97 E30.82539
G1 X11.757 Y29.217 E30.85757
G1 X9.457 Y30.041 E30.97946
G1 X8.835 Y30.23 E31.01189
G1 X6.464 Y30.824 E31.13384
G1 X5.827 Y30.951 E31.16625
G1 X3.409 Y31.309 E31.28819
G1 X2.766 Y31.372 E31.32043
G1 X0.326 Y31.492 E31.44231
G1 X-0.322 Y31.492 E31.47464
G1 X-2.762 Y31.372 E31.59652
G1 X-3.401 Y31.309 E31.62855
G1 X-5.821 Y30.952 E31.75059
G1 X-6.466 Y30.824 E31.7834
G1 X-8.846 Y30.226 E31.90583
G1 X-9.464 Y30.038 E31.93805
G1 X-11.761 Y29.215 E32.05979
G1 X-12.359 Y28.968 E32.09206
G1 X-14.569 Y27.922 E32.21405
G1 X-15.139 Y27.616 E32.24632
G1 X-17.235 Y26.359 E32.36826
G1 X-17.774 Y25.999 E32.40059
G1 X-19.728 Y24.549 E32.52199
G1 X-20.228 Y24.139 E32.55425
G1 X-22.045 Y22.492 E32.6766
G1 X-22.505 Y22.031 E32.70909
G1 X-24.144 Y20.22 E32.83095
G1 X-24.55 Y19.726 E32.86285
G1 X-26.001 Y17.772 E32.98427
G1 X-26.363 Y17.23 E33.01679
G1 X-27.626 Y15.123 E33.13935
G1 X-27.932 Y14.55 E33.17176
G1 X-28.971 Y12.351 E33.29309
G1 X-29.218 Y11.756 E33.32523
G1 X-30.043 Y9.452 E33.44733
G1 X-30.231 Y8.83 E33.47975
G1 X-30.825 Y6.458 E33.60174
G1 X-30.952 Y5.823 E33.63405
G1 X-31.31 Y3.408 E33.75585
G1 X-31.373 Y2.762 E33.78823
G1 X-31.492 Y0.329 E33.90976
G1 X-31.492 Y-0.315 E33.94189
G1 X-31.373 Y-2.755 E34.06377
G1 X-31.31 Y-3.397 E34.09595
G1 X-30.953 Y-5.814 E34.21784
G1 X-30.826 Y-6.454 E34.25039
G1 X-30.231 Y-8.829 E34.37254
G1 X-30.043 Y-9.45 E34.40492
G1 X-29.216 Y-11.76 E34.52732
G1 X-28.968 Y-12.358 E34.55962
G1 X-27.926 Y-14.56 E34.68116
G1 X-27.622 Y-15.129 E34.71335
G1 X-26.362 Y-17.232 E34.83565
G1 X-26 Y-17.773 E34.86813
G1 X-24.549 Y-19.728 E34.98959
G1 X-24.14 Y-20.227 E35.02178
G1 X-22.5 Y-22.037 E35.14364
G1 X-22.039 Y-22.498 E35.17617
G1 X-20.221 Y-24.144 E35.29852
G1 X-19.726 Y-24.55 E35.33046
G1 X-17.772 Y-26.001 E35.45188
G1 X-17.23 Y-26.363 E35.4844
G1 X-15.133 Y-27.62 E35.60637
G1 X-14.562 Y-27.925 E35.63867
G1 X-12.353 Y-28.97 E35.76059
G1 X-11.757 Y-29.217 E35.79278
G1 X-9.457 Y-30.041 E35.91466
G1 X-8.835 Y-30.23 E35.9471
G1 X-6.464 Y-30.824 E36.06904
G1 X-5.827 Y-30.951 E36.10145
G1 X-3.409 Y-31.309 E36.2234
G1 X-2.766 Y-31.372 E36.25563
G1 X-0.326 Y-31.492 E36.37751
G1 X0.322 Y-31.492 E36.40984
G1 X2.762 Y-31.372 E36.53172
G1 X3.401 Y-31.309 E36.56375
G1 X5.822 Y-30.952 E36.68584
G1 X6.31 Y-30.862 E36.7106
G1 X7.486 Y-30.597 E36.77074
G1 X7.95 Y-30.474 E36.79469
G1 X10.295 Y-29.763 E36.91694
G1 X10.904 Y-29.545 E36.94921
G1 X13.163 Y-28.61 E37.07119
G1 X13.748 Y-28.334 E37.10346
G1 X15.911 Y-27.179 E37.22579
G1 X16.469 Y-26.845 E37.25824
G1 X18.494 Y-25.492 E37.37974
G1 X19.014 Y-25.106 E37.41205
G1 X20.909 Y-23.551 E37.53435
G1 X21.388 Y-23.117 E37.56659
G1 X23.11 Y-21.396 E37.68806
G1 X23.546 Y-20.915 E37.72044
G1 X25.103 Y-19.018 E37.84288
G1 X25.488 Y-18.498 E37.87516
G1 X26.84 Y-16.475 E37.99655
G1 X27.174 Y-15.919 E38.02891
G1 X28.331 Y-13.754 E38.15138
G1 X28.607 Y-13.169 E38.18365
G1 X29.538 Y-10.922 E38.305
G1 X29.706 Y-10.473 E38.32892
G1 X30.088 Y-9.321 E38.38947
G1 X30.224 Y-8.853 E38.41378
G1 X30.822 Y-6.474 E38.53616
G1 X30.949 Y-5.835 E38.56867
G1 X31.308 Y-3.42 E38.69047
G1 X31.372 Y-2.774 E38.72286
G1 X31.492 Y-0.331 E38.84489
G1 X31.492 Y0.315 E38.87712
G1 X31.373 Y2.755 E38.999
G1 X31.31 Y3.397 E39.03118
G1 X30.953 Y5.814 E39.15307
G1 X30.826 Y6.454 E39.18562
G1 X30.231 Y8.829 E39.30778
G1 X30.043 Y9.45 E39.34015
G1 X29.216 Y11.76 E39.46255
G1 X28.968 Y12.358 E39.49485
G1 X27.926 Y14.56 E39.61639
G1 X27.622 Y15.129 E39.64858
