;FLAVOR:RepRap
;TIME:3013
;Filament used: 2.60936m
;Layer height: 0.15
;Generated with Cura_SteamEngine 0.0.0-master
M104 S200
M109 S200
;Sliced at: Thu 27-08-2020 14:11:51 
 ;Basic settings: Layer height: 0.15 Walls: 1.2 Fill: {fill_density} 
 ;Print time: 00:50:14 
 ;Filament used: [2.61]m [7.78253970703125]g 
 ;Filament cost: [0] 
 ;M190 S60 ;Uncomment to add your own bed temperature line 
 ;M109 S200 ;Uncomment to add your own temperature line 
 G21        ;metric values 
 G90        ;absolute positioning 
 M82        ;set extruder to absolute mode 
 M107       ;start with the fan off 
 G28 X0 Y0  ;move X/Y to min endstops 
 G28 Z0     ;move Z to min endstops 
 G1 Z15.0 F3000 ;move the platform down 15mm 
 G92 E0                  ;zero the extruded length 
 G1 F3000 E3              ;extrude 3mm of feed stock 
 G92 E0                  ;zero the extruded length again 
 G1 F3000 
 ;Put printing message on LCD screen 
 M117 Printing...
;LAYER_COUNT:46
;LAYER:0
M107
G0 F3600 X-19.833 Y26.114 Z0.299
;TYPE:SKIRT
G1 F1800 X-21.729 Y24.559 E0.12234
G1 X-22.295 Y24.047 E0.16041
G1 X-24.039 Y22.305 E0.28339
G1 X-24.558 Y21.732 E0.32196
G1 X-26.112 Y19.837 E0.44423
G1 X-26.567 Y19.224 E0.48231
G1 X-27.93 Y17.184 E0.60472
G1 X-28.323 Y16.527 E0.64291
G1 X-29.48 Y14.362 E0.76538
G1 X-29.808 Y13.669 E0.80363
G1 X-30.746 Y11.403 E0.92599
G1 X-31.004 Y10.682 E0.96419
G1 X-31.719 Y8.322 E1.08722
G1 X-31.905 Y7.578 E1.12548
G1 X-32.381 Y5.179 E1.2475
G1 X-32.492 Y4.427 E1.28542
G1 X-32.732 Y1.995 E1.40734
G1 X-32.77 Y1.229 E1.44561
G1 X-32.77 Y-1.234 E1.56848
G1 X-32.732 Y-2.003 E1.6069
G1 X-32.491 Y-4.437 E1.72892
G1 X-32.416 Y-4.994 E1.75696
G1 X-32.208 Y-6.2 E1.81802
G1 X-32.087 Y-6.769 E1.84704
G1 X-31.492 Y-9.145 E1.96924
G1 X-31.27 Y-9.878 E2.00745
G1 X-30.44 Y-12.197 E2.13033
G1 X-30.149 Y-12.901 E2.16834
G1 X-29.106 Y-15.109 E2.29017
G1 X-28.742 Y-15.789 E2.32865
G1 X-27.474 Y-17.903 E2.45163
G1 X-27.049 Y-18.538 E2.48975
G1 X-25.586 Y-20.51 E2.61226
G1 X-25.104 Y-21.099 E2.65023
G1 X-23.465 Y-22.909 E2.77205
G1 X-22.923 Y-23.451 E2.81029
G1 X-21.107 Y-25.098 E2.9326
G1 X-20.514 Y-25.584 E2.97085
G1 X-18.542 Y-27.047 E3.09336
G1 X-17.907 Y-27.472 E3.13148
G1 X-15.806 Y-28.732 E3.2537
G1 X-15.132 Y-29.093 E3.29185
G1 X-12.912 Y-30.144 E3.41439
G1 X-12.205 Y-30.437 E3.45257
G1 X-9.891 Y-31.266 E3.5752
G1 X-9.157 Y-31.489 E3.61347
G1 X-6.772 Y-32.087 E3.73614
G1 X-6.016 Y-32.237 E3.7746
G1 X-3.588 Y-32.596 E3.89705
G1 X-2.829 Y-32.671 E3.9351
G1 X-0.38 Y-32.791 E4.05742
G1 X0.384 Y-32.791 E4.09554
G1 X2.833 Y-32.671 E4.21787
G1 X3.592 Y-32.596 E4.25592
G1 X6.019 Y-32.237 E4.37832
G1 X6.591 Y-32.131 E4.40734
G1 X7.773 Y-31.865 E4.46779
G1 X8.323 Y-31.719 E4.49618
G1 X10.678 Y-31.005 E4.61895
G1 X11.397 Y-30.749 E4.65703
G1 X13.662 Y-29.812 E4.77932
G1 X14.354 Y-29.484 E4.81752
G1 X16.528 Y-28.323 E4.94048
G1 X17.19 Y-27.927 E4.97897
G1 X19.222 Y-26.568 E5.10093
G1 X19.83 Y-26.117 E5.13869
G1 X21.726 Y-24.563 E5.261
G1 X22.296 Y-24.047 E5.29936
G1 X24.039 Y-22.305 E5.4223
G1 X24.557 Y-21.733 E5.4608
G1 X26.113 Y-19.835 E5.58325
G1 X26.564 Y-19.227 E5.62101
G1 X27.922 Y-17.197 E5.74286
G1 X28.318 Y-16.537 E5.78126
G1 X29.48 Y-14.363 E5.90424
G1 X29.807 Y-13.671 E5.94243
G1 X30.742 Y-11.414 E6.06431
G1 X31 Y-10.693 E6.10252
G1 X31.716 Y-8.332 E6.2256
G1 X31.903 Y-7.587 E6.26392
G1 X32.381 Y-5.18 E6.38636
G1 X32.492 Y-4.427 E6.42433
G1 X32.732 Y-1.995 E6.54625
G1 X32.77 Y-1.229 E6.58451
G1 X32.77 Y1.234 E6.70739
G1 X32.732 Y2.003 E6.74581
G1 X32.491 Y4.437 E6.86783
G1 X32.416 Y4.994 E6.89587
G1 X32.208 Y6.2 E6.95693
G1 X32.087 Y6.769 E6.98595
G1 X31.492 Y9.145 E7.10815
G1 X31.27 Y9.878 E7.14636
G1 X30.44 Y12.197 E7.26924
G1 X30.149 Y12.901 E7.30725
G1 X29.106 Y15.109 E7.42908
G1 X28.742 Y15.789 E7.46756
G1 X27.474 Y17.903 E7.59054
G1 X27.049 Y18.538 E7.62866
G1 X25.586 Y20.51 E7.75117
G1 X25.104 Y21.099 E7.78914
G1 X23.465 Y22.909 E7.91096
G1 X22.923 Y23.451 E7.9492
G1 X21.107 Y25.098 E8.07151
G1 X20.514 Y25.584 E8.10976
G1 X18.542 Y27.047 E8.23226
G1 X17.904 Y27.474 E8.27057
G1 X15.801 Y28.734 E8.39287
G1 X15.132 Y29.092 E8.43073
G1 X12.914 Y30.143 E8.55318
G1 X12.205 Y30.437 E8.59147
G1 X9.891 Y31.266 E8.7141
G1 X9.157 Y31.489 E8.75238
G1 X6.772 Y32.087 E8.87505
G1 X6.016 Y32.237 E8.9135
G1 X3.588 Y32.596 E9.03595
G1 X2.829 Y32.671 E9.074
G1 X0.38 Y32.791 E9.19633
G1 X-0.384 Y32.791 E9.23445
G1 X-2.833 Y32.671 E9.35677
G1 X-3.592 Y32.596 E9.39482
G1 X-6.019 Y32.237 E9.51723
G1 X-6.592 Y32.13 E9.54631
G1 X-7.773 Y31.864 E9.6067
G1 X-8.321 Y31.72 E9.63497
G1 X-10.677 Y31.006 E9.75779
G1 X-11.397 Y30.748 E9.79595
G1 X-13.664 Y29.81 E9.91835
G1 X-14.356 Y29.483 E9.95653
G1 X-16.53 Y28.322 E10.07949
G1 X-17.194 Y27.925 E10.11809
G1 X-19.225 Y26.566 E10.24001
G1 X-19.833 Y26.114 E10.2778
G0 F3600 X-19.58 Y25.805
G1 F1800 X-21.476 Y24.25 E10.40014
G1 X-22.013 Y23.764 E10.43627
G1 X-23.757 Y22.022 E10.55925
G1 X-24.249 Y21.478 E10.59585
G1 X-25.803 Y19.583 E10.71811
G1 X-26.234 Y19.002 E10.7542
G1 X-27.597 Y16.962 E10.87661
G1 X-27.97 Y16.339 E10.91283
G1 X-29.127 Y14.174 E11.0353
G1 X-29.438 Y13.516 E11.07161
G1 X-30.376 Y11.25 E11.19397
G1 X-30.621 Y10.566 E11.23021
G1 X-31.336 Y8.206 E11.35324
G1 X-31.512 Y7.5 E11.38954
G1 X-31.988 Y5.101 E11.51156
G1 X-32.094 Y4.388 E11.54752
G1 X-32.334 Y1.956 E11.66944
G1 X-32.37 Y1.229 E11.70576
G1 X-32.37 Y-1.234 E11.82864
G1 X-32.334 Y-1.963 E11.86505
G1 X-32.093 Y-4.397 E11.98708
G1 X-32.021 Y-4.926 E12.01371
G1 X-31.813 Y-6.132 E12.07477
G1 X-31.699 Y-6.672 E12.10231
G1 X-31.104 Y-9.048 E12.2245
G1 X-30.893 Y-9.744 E12.26079
G1 X-30.063 Y-12.063 E12.38367
G1 X-29.787 Y-12.73 E12.41968
G1 X-28.744 Y-14.938 E12.54151
G1 X-28.399 Y-15.583 E12.57801
G1 X-27.131 Y-17.697 E12.70099
G1 X-26.728 Y-18.3 E12.73718
G1 X-25.265 Y-20.272 E12.85968
G1 X-24.807 Y-20.83 E12.89569
G1 X-23.168 Y-22.64 E13.01752
G1 X-22.654 Y-23.154 E13.05378
G1 X-20.838 Y-24.801 E13.17609
G1 X-20.276 Y-25.263 E13.21239
G1 X-18.304 Y-26.726 E13.33489
G1 X-17.701 Y-27.129 E13.37108
G1 X-15.6 Y-28.389 E13.4933
G1 X-14.96 Y-28.731 E13.5295
G1 X-12.74 Y-29.782 E13.65204
G1 X-12.07 Y-30.06 E13.68823
G1 X-9.756 Y-30.889 E13.81086
G1 X-9.06 Y-31.101 E13.84716
G1 X-6.675 Y-31.699 E13.96983
G1 X-5.957 Y-31.841 E14.00635
G1 X-3.529 Y-32.2 E14.1288
G1 X-2.809 Y-32.271 E14.16489
G1 X-0.36 Y-32.391 E14.28722
G1 X0.364 Y-32.391 E14.32334
G1 X2.813 Y-32.271 E14.44567
G1 X3.534 Y-32.2 E14.48182
G1 X5.961 Y-31.841 E14.60422
G1 X6.503 Y-31.74 E14.63172
G1 X7.685 Y-31.474 E14.69217
G1 X8.207 Y-31.337 E14.71909
G1 X10.562 Y-30.623 E14.84186
G1 X11.244 Y-30.379 E14.878
G1 X13.509 Y-29.442 E15.00029
G1 X14.166 Y-29.131 E15.03656
G1 X16.34 Y-27.97 E15.15951
G1 X16.968 Y-27.594 E15.19603
G1 X19 Y-26.235 E15.31799
G1 X19.577 Y-25.807 E15.35383
G1 X21.473 Y-24.253 E15.47614
G1 X22.013 Y-23.764 E15.51248
G1 X23.756 Y-22.022 E15.63543
G1 X24.248 Y-21.48 E15.67195
G1 X25.804 Y-19.582 E15.79439
G1 X26.232 Y-19.005 E15.83023
G1 X27.59 Y-16.975 E15.95208
G1 X27.965 Y-16.348 E15.98853
G1 X29.127 Y-14.174 E16.11151
G1 X29.438 Y-13.518 E16.14773
G1 X30.373 Y-11.261 E16.26961
G1 X30.618 Y-10.577 E16.30586
G1 X31.334 Y-8.216 E16.42895
G1 X31.51 Y-7.509 E16.4653
G1 X31.988 Y-5.102 E16.58773
G1 X32.094 Y-4.388 E16.62374
G1 X32.334 Y-1.956 E16.74566
G1 X32.37 Y-1.229 E16.78198
G1 X32.37 Y1.234 E16.90486
G1 X32.334 Y1.963 E16.94127
G1 X32.093 Y4.397 E17.0633
G1 X32.021 Y4.926 E17.08994
G1 X31.813 Y6.132 E17.15099
G1 X31.699 Y6.672 E17.17853
G1 X31.104 Y9.048 E17.30072
G1 X30.893 Y9.744 E17.33701
G1 X30.063 Y12.063 E17.45989
G1 X29.787 Y12.73 E17.4959
G1 X28.744 Y14.938 E17.61773
G1 X28.399 Y15.583 E17.65423
G1 X27.131 Y17.697 E17.77721
G1 X26.728 Y18.3 E17.8134
G1 X25.265 Y20.272 E17.9359
G1 X24.807 Y20.83 E17.97191
G1 X23.168 Y22.64 E18.09374
G1 X22.654 Y23.154 E18.13
G1 X20.838 Y24.801 E18.25231
G1 X20.276 Y25.263 E18.28861
G1 X18.304 Y26.726 E18.41111
G1 X17.698 Y27.131 E18.44748
G1 X15.595 Y28.391 E18.56979
G1 X14.961 Y28.73 E18.60565
G1 X12.743 Y29.781 E18.7281
G1 X12.07 Y30.06 E18.76445
G1 X9.756 Y30.889 E18.88708
G1 X9.06 Y31.101 E18.92338
G1 X6.675 Y31.699 E19.04605
G1 X5.957 Y31.841 E19.08257
G1 X3.529 Y32.2 E19.20502
G1 X2.809 Y32.271 E19.24111
G1 X0.36 Y32.391 E19.36344
G1 X-0.364 Y32.391 E19.39956
G1 X-2.813 Y32.271 E19.52189
G1 X-3.534 Y32.2 E19.55803
G1 X-5.961 Y31.841 E19.68043
G1 X-6.504 Y31.74 E19.70799
G1 X-7.685 Y31.474 E19.76839
G1 X-8.205 Y31.337 E19.79521
G1 X-10.561 Y30.623 E19.91803
G1 X-11.244 Y30.379 E19.95422
G1 X-13.511 Y29.441 E20.07662
G1 X-14.168 Y29.13 E20.11288
G1 X-16.342 Y27.969 E20.23584
G1 X-16.971 Y27.592 E20.27243
G1 X-19.002 Y26.233 E20.39435
G1 X-19.58 Y25.805 E20.43023
G0 F3600 X-19.326 Y25.495
G1 F1800 X-21.222 Y23.94 E20.55256
G1 X-21.73 Y23.481 E20.58672
G1 X-23.474 Y21.739 E20.7097
G1 X-23.94 Y21.225 E20.74431
G1 X-25.494 Y19.33 E20.86658
G1 X-25.901 Y18.78 E20.90072
G1 X-27.264 Y16.74 E21.02312
G1 X-27.618 Y16.15 E21.05745
G1 X-28.775 Y13.985 E21.17991
G1 X-29.069 Y13.363 E21.21424
G1 X-30.007 Y11.097 E21.33659
G1 X-30.238 Y10.45 E21.37087
G1 X-30.953 Y8.09 E21.49389
G1 X-31.12 Y7.422 E21.52824
G1 X-31.596 Y5.023 E21.65026
G1 X-31.696 Y4.348 E21.68431
G1 X-31.936 Y1.916 E21.80623
G1 X-31.97 Y1.229 E21.84055
G1 X-31.97 Y-1.234 E21.96343
G1 X-31.936 Y-1.924 E21.99789
G1 X-31.695 Y-4.358 E22.11992
G1 X-31.627 Y-4.858 E22.14509
G1 X-31.419 Y-6.064 E22.20615
G1 X-31.311 Y-6.574 E22.23216
G1 X-30.716 Y-8.95 E22.35436
G1 X-30.517 Y-9.609 E22.3887
G1 X-29.687 Y-11.928 E22.51158
G1 X-29.425 Y-12.559 E22.54567
G1 X-28.382 Y-14.767 E22.6675
G1 X-28.056 Y-15.378 E22.70205
G1 X-26.788 Y-17.492 E22.82504
G1 X-26.407 Y-18.062 E22.85924
G1 X-24.944 Y-20.034 E22.98174
G1 X-24.511 Y-20.562 E23.01581
G1 X-22.872 Y-22.372 E23.13763
G1 X-22.386 Y-22.858 E23.17192
G1 X-20.57 Y-24.505 E23.29423
G1 X-20.038 Y-24.942 E23.32858
G1 X-18.066 Y-26.405 E23.45108
G1 X-17.495 Y-26.786 E23.48533
G1 X-15.394 Y-28.046 E23.60755
G1 X-14.789 Y-28.37 E23.64179
G1 X-12.569 Y-29.421 E23.76433
G1 X-11.935 Y-29.684 E23.79858
G1 X-9.621 Y-30.513 E23.92121
G1 X-8.962 Y-30.713 E23.95557
G1 X-6.577 Y-31.311 E24.07824
G1 X-5.899 Y-31.446 E24.11273
G1 X-3.471 Y-31.805 E24.23518
G1 X-2.79 Y-31.872 E24.26932
G1 X-0.341 Y-31.992 E24.39165
G1 X0.345 Y-31.992 E24.42587
G1 X2.794 Y-31.872 E24.5482
G1 X3.475 Y-31.805 E24.58234
G1 X5.902 Y-31.446 E24.70474
G1 X6.415 Y-31.35 E24.73078
G1 X7.597 Y-31.084 E24.79122
G1 X8.091 Y-30.954 E24.81671
G1 X10.446 Y-30.24 E24.93948
G1 X11.091 Y-30.009 E24.97366
G1 X13.356 Y-29.072 E25.09595
G1 X13.978 Y-28.779 E25.13025
G1 X16.152 Y-27.618 E25.25321
G1 X16.745 Y-27.262 E25.28772
G1 X18.777 Y-25.903 E25.40968
G1 X19.323 Y-25.498 E25.44359
G1 X21.219 Y-23.944 E25.5659
G1 X21.73 Y-23.481 E25.6003
G1 X23.473 Y-21.739 E25.72324
G1 X23.938 Y-21.226 E25.75779
G1 X25.494 Y-19.328 E25.88023
G1 X25.899 Y-18.782 E25.91415
G1 X27.257 Y-16.752 E26.036
G1 X27.612 Y-16.16 E26.07043
G1 X28.774 Y-13.986 E26.19342
G1 X29.068 Y-13.365 E26.22769
G1 X30.003 Y-11.108 E26.34958
G1 X30.235 Y-10.46 E26.38392
G1 X30.951 Y-8.099 E26.507
G1 X31.118 Y-7.431 E26.54136
G1 X31.596 Y-5.024 E26.66379
G1 X31.696 Y-4.348 E26.69788
G1 X31.936 Y-1.916 E26.8198
G1 X31.97 Y-1.229 E26.85412
G1 X31.97 Y1.234 E26.977
G1 X31.936 Y1.924 E27.01146
G1 X31.695 Y4.358 E27.13349
G1 X31.627 Y4.858 E27.15866
G1 X31.419 Y6.064 E27.21972
G1 X31.311 Y6.574 E27.24573
G1 X30.716 Y8.95 E27.36793
G1 X30.517 Y9.609 E27.40227
G1 X29.687 Y11.928 E27.52515
G1 X29.425 Y12.559 E27.55924
G1 X28.382 Y14.767 E27.68107
G1 X28.056 Y15.378 E27.71562
G1 X26.788 Y17.492 E27.83861
G1 X26.407 Y18.062 E27.87281
G1 X24.944 Y20.034 E27.99531
G1 X24.511 Y20.562 E28.02938
G1 X22.872 Y22.372 E28.1512
G1 X22.386 Y22.858 E28.18549
G1 X20.57 Y24.505 E28.30781
G1 X20.038 Y24.942 E28.34215
G1 X18.066 Y26.405 E28.46466
G1 X17.493 Y26.788 E28.49904
G1 X15.39 Y28.048 E28.62135
G1 X14.789 Y28.369 E28.65534
G1 X12.571 Y29.42 E28.77779
G1 X11.935 Y29.684 E28.81215
G1 X9.621 Y30.513 E28.93478
G1 X8.962 Y30.713 E28.96914
G1 X6.577 Y31.311 E29.09181
G1 X5.899 Y31.446 E29.1263
G1 X3.471 Y31.805 E29.24875
G1 X2.79 Y31.872 E29.28289
G1 X0.341 Y31.992 E29.40522
G1 X-0.345 Y31.992 E29.43944
G1 X-2.794 Y31.872 E29.56177
G1 X-3.475 Y31.805 E29.59591
G1 X-5.902 Y31.446 E29.71831
G1 X-6.416 Y31.35 E29.7444
G1 X-7.597 Y31.084 E29.80479
G1 X-8.089 Y30.954 E29.83018
G1 X-10.445 Y30.24 E29.953
G1 X-11.091 Y30.009 E29.98723
G1 X-13.358 Y29.071 E30.10963
G1 X-13.98 Y28.778 E30.14393
G1 X-16.154 Y27.617 E30.26689
G1 X-16.749 Y27.26 E30.30151
G1 X-18.78 Y25.901 E30.42343
G1 X-19.326 Y25.495 E30.45737
G0 F3600 X-19.072 Y25.186
G1 F1800 X-20.968 Y23.631 E30.57971
G1 X-21.447 Y23.198 E30.61192
G1 X-23.191 Y21.456 E30.7349
G1 X-23.63 Y20.971 E30.76754
G1 X-25.184 Y19.076 E30.8898
G1 X-25.569 Y18.558 E30.922
G1 X-26.932 Y16.518 E31.04441
G1 X-27.265 Y15.962 E31.07674
G1 X-28.422 Y13.797 E31.19921
G1 X-28.699 Y13.21 E31.23159
G1 X-29.637 Y10.944 E31.35394
G1 X-29.855 Y10.334 E31.38626
G1 X-30.57 Y7.974 E31.50929
G1 X-30.728 Y7.345 E31.54164
G1 X-31.204 Y4.946 E31.66366
G1 X-31.298 Y4.309 E31.69579
G1 X-31.538 Y1.877 E31.81771
G1 X-31.57 Y1.229 E31.85008
G1 X-31.57 Y-1.234 E31.97296
G1 X-31.538 Y-1.884 E32.00543
G1 X-31.297 Y-4.318 E32.12745
G1 X-31.233 Y-4.79 E32.15122
G1 X-31.025 Y-5.996 E32.21227
G1 X-30.923 Y-6.477 E32.2368
G1 X-30.328 Y-8.853 E32.359
G1 X-30.14 Y-9.474 E32.39137
G1 X-29.31 Y-11.793 E32.51426
G1 X-29.064 Y-12.388 E32.54638
G1 X-28.021 Y-14.596 E32.66821
G1 X-27.713 Y-15.172 E32.70079
G1 X-26.445 Y-17.286 E32.82378
G1 X-26.086 Y-17.823 E32.85601
G1 X-24.623 Y-19.795 E32.97851
G1 X-24.214 Y-20.293 E33.01066
G1 X-22.575 Y-22.103 E33.13248
G1 X-22.117 Y-22.562 E33.16483
G1 X-20.301 Y-24.209 E33.28714
G1 X-19.799 Y-24.621 E33.31954
G1 X-17.827 Y-26.084 E33.44204
G1 X-17.289 Y-26.443 E33.47431
G1 X-15.188 Y-27.703 E33.59654
G1 X-14.618 Y-28.008 E33.62879
G1 X-12.398 Y-29.059 E33.75133
G1 X-11.8 Y-29.307 E33.78363
G1 X-9.486 Y-30.136 E33.90626
G1 X-8.865 Y-30.325 E33.93864
G1 X-6.48 Y-30.923 E34.06132
G1 X-5.84 Y-31.05 E34.09387
G1 X-3.412 Y-31.409 E34.21632
G1 X-2.77 Y-31.472 E34.2485
G1 X-0.321 Y-31.592 E34.37083
G1 X0.325 Y-31.592 E34.40306
G1 X2.774 Y-31.472 E34.52539
G1 X3.417 Y-31.409 E34.55762
G1 X5.844 Y-31.05 E34.68002
G1 X6.327 Y-30.96 E34.70453
G1 X7.509 Y-30.694 E34.76498
G1 X7.975 Y-30.571 E34.78902
G1 X10.33 Y-29.857 E34.91179
G1 X10.938 Y-29.64 E34.944
G1 X13.203 Y-28.703 E35.06629
G1 X13.789 Y-28.426 E35.09863
G1 X15.963 Y-27.265 E35.22159
G1 X16.523 Y-26.929 E35.25417
G1 X18.555 Y-25.57 E35.37613
G1 X19.07 Y-25.189 E35.40809
G1 X20.966 Y-23.635 E35.53039
G1 X21.448 Y-23.198 E35.56285
G1 X23.191 Y-21.456 E35.6858
G1 X23.629 Y-20.972 E35.71836
G1 X25.185 Y-19.074 E35.84081
G1 X25.567 Y-18.56 E35.87276
G1 X26.925 Y-16.53 E35.99461
G1 X27.26 Y-15.971 E36.02712
G1 X28.422 Y-13.797 E36.1501
G1 X28.698 Y-13.212 E36.18237
G1 X29.633 Y-10.955 E36.30425
G1 X29.852 Y-10.344 E36.33664
G1 X30.568 Y-7.983 E36.45972
G1 X30.726 Y-7.354 E36.49208
G1 X31.204 Y-4.947 E36.61451
G1 X31.298 Y-4.309 E36.64668
G1 X31.538 Y-1.877 E36.76861
G1 X31.57 Y-1.229 E36.80097
G1 X31.57 Y1.234 E36.92385
G1 X31.538 Y1.884 E36.95632
G1 X31.297 Y4.318 E37.07835
G1 X31.233 Y4.79 E37.10211
G1 X31.025 Y5.996 E37.16317
G1 X30.923 Y6.477 E37.1877
G1 X30.328 Y8.853 E37.3099
G1 X30.14 Y9.474 E37.34227
G1 X29.31 Y11.793 E37.46515
G1 X29.064 Y12.388 E37.49727
G1 X28.021 Y14.596 E37.6191
G1 X27.713 Y15.172 E37.65169
G1 X26.445 Y17.286 E37.77468
G1 X26.086 Y17.823 E37.8069
G1 X24.623 Y19.795 E37.9294
G1 X24.214 Y20.293 E37.96155
G1 X22.575 Y22.103 E38.08338
G1 X22.117 Y22.562 E38.11573
G1 X20.301 Y24.209 E38.23804
G1 X19.799 Y24.621 E38.27044
G1 X17.827 Y26.084 E38.39294
G1 X17.287 Y26.445 E38.42535
G1 X15.184 Y27.705 E38.54766
G1 X14.618 Y28.007 E38.57966
G1 X12.4 Y29.058 E38.70211
G1 X11.8 Y29.307 E38.73452
G1 X9.486 Y30.136 E38.85715
G1 X8.865 Y30.325 E38.88954
G1 X6.48 Y30.923 E39.01221
G1 X5.84 Y31.05 E39.04476
G1 X3.412 Y31.409 E39.16721
G1 X2.77 Y31.472 E39.1994
G1 X0.321 Y31.592 E39.32172
G1 X-0.325 Y31.592 E39.35395
