;FLAVOR:RepRap
;TIME:3261
;Filament used: 2.71272m
;Layer height: 0.15
;Generated with Cura_SteamEngine 0.0.0-master
M104 S200
M109 S200
;Sliced at: Thu 27-08-2020 20:20:17 
 ;Basic settings: Layer height: 0.15 Walls: 1.2 Fill: {fill_density} 
 ;Print time: 00:54:21 
 ;Filament used: [2.71]m [8.09081533203125]g 
 ;Filament cost: [0] 
 ;M190 S60 ;Uncomment to add your own bed temperature line 
 ;M109 S200 ;Uncomment to add your own temperature line 
 G21        ;metric values 
 G90        ;absolute positioning 
 M82        ;set extruder to absolute mode 
 M107       ;start with the fan off 
 G28 X0 Y0  ;move X/Y to min endstops 
 G28 Z0     ;move Z to min endstops 
 G1 Z15.0 F3000 ;move the platform down 15mm 
 G92 E0                  ;zero the extruded length 
 G1 F3000 E3              ;extrude 3mm of feed stock 
 G92 E0                  ;zero the extruded length again 
 G1 F3000 
 ;Put printing message on LCD screen 
 M117 Printing...
;LAYER_COUNT:49
;LAYER:0
M107
G0 F3600 X5.418 Y-33.861 Z0.299
;TYPE:SKIRT
G1 F1800 X7.944 Y-33.359 E0.12849
G1 X8.686 Y-33.174 E0.16664
G1 X11.188 Y-32.416 E0.29707
G1 X11.91 Y-32.158 E0.33532
G1 X14.311 Y-31.164 E0.46496
G1 X15.002 Y-30.837 E0.5031
G1 X17.305 Y-29.607 E0.63336
G1 X17.967 Y-29.21 E0.67187
G1 X20.121 Y-27.769 E0.80117
G1 X20.731 Y-27.317 E0.83904
G1 X22.74 Y-25.669 E0.96868
G1 X23.307 Y-25.155 E1.00686
G1 X25.157 Y-23.306 E1.13735
G1 X25.677 Y-22.732 E1.17599
G1 X27.323 Y-20.723 E1.30557
G1 X27.772 Y-20.116 E1.34324
G1 X29.212 Y-17.963 E1.47246
G1 X29.61 Y-17.3 E1.51104
G1 X30.841 Y-14.994 E1.64145
G1 X31.166 Y-14.306 E1.67942
G1 X32.156 Y-11.916 E1.80848
G1 X32.356 Y-11.378 E1.83711
G1 X32.764 Y-10.143 E1.902
G1 X32.924 Y-9.594 E1.93053
G1 X33.556 Y-7.075 E2.0601
G1 X33.706 Y-6.319 E2.09855
G1 X34.088 Y-3.739 E2.22867
G1 X34.162 Y-2.982 E2.26662
G1 X34.29 Y-0.392 E2.39599
G1 X34.291 Y0.377 E2.43436
G1 X34.163 Y2.974 E2.56408
G1 X34.089 Y3.726 E2.60178
G1 X33.71 Y6.301 E2.73163
G1 X33.559 Y7.062 E2.77034
G1 X32.927 Y9.583 E2.9
G1 X32.705 Y10.313 E2.93807
G1 X31.826 Y12.77 E3.06826
G1 X31.535 Y13.475 E3.10631
G1 X30.429 Y15.816 E3.23548
G1 X30.065 Y16.496 E3.27396
G1 X28.721 Y18.737 E3.40433
G1 X28.296 Y19.373 E3.44249
G1 X26.746 Y21.462 E3.57227
G1 X26.262 Y22.052 E3.61034
G1 X24.523 Y23.971 E3.73954
G1 X23.985 Y24.509 E3.7775
G1 X22.06 Y26.256 E3.90719
G1 X21.466 Y26.744 E3.94555
G1 X19.377 Y28.294 E4.07532
G1 X18.738 Y28.721 E4.11367
G1 X16.508 Y30.057 E4.24336
G1 X15.839 Y30.415 E4.28121
G1 X13.488 Y31.529 E4.41101
G1 X12.777 Y31.823 E4.44939
G1 X10.325 Y32.701 E4.57933
G1 X9.593 Y32.924 E4.6175
G1 X7.065 Y33.558 E4.74753
G1 X6.305 Y33.709 E4.78619
G1 X3.727 Y34.089 E4.9162
G1 X2.975 Y34.163 E4.9539
G1 X0.383 Y34.291 E5.08337
G1 X-0.387 Y34.291 E5.12178
G1 X-2.979 Y34.163 E5.25126
G1 X-3.732 Y34.089 E5.28901
G1 X-6.309 Y33.709 E5.41896
G1 X-7.07 Y33.557 E5.45768
G1 X-9.592 Y32.924 E5.58741
G1 X-10.322 Y32.702 E5.62547
G1 X-12.777 Y31.823 E5.75557
G1 X-13.488 Y31.529 E5.79395
G1 X-15.839 Y30.415 E5.92374
G1 X-16.509 Y30.057 E5.96164
G1 X-18.74 Y28.72 E6.09141
G1 X-19.377 Y28.293 E6.12967
G1 X-21.465 Y26.744 E6.25937
G1 X-22.06 Y26.256 E6.29776
G1 X-23.985 Y24.509 E6.42745
G1 X-24.523 Y23.971 E6.46541
G1 X-26.262 Y22.052 E6.59462
G1 X-26.745 Y21.463 E6.63262
G1 X-28.295 Y19.375 E6.76235
G1 X-28.722 Y18.736 E6.8007
G1 X-30.066 Y16.494 E6.93111
G1 X-30.429 Y15.816 E6.96948
G1 X-31.535 Y13.475 E7.09865
G1 X-31.826 Y12.77 E7.1367
G1 X-32.705 Y10.313 E7.26689
G1 X-32.927 Y9.581 E7.30505
G1 X-33.558 Y7.062 E7.43461
G1 X-33.708 Y6.308 E7.47296
G1 X-34.088 Y3.738 E7.60257
G1 X-34.162 Y2.982 E7.64047
G1 X-34.29 Y0.392 E7.76984
G1 X-34.291 Y-0.377 E7.80821
G1 X-34.163 Y-2.974 E7.93793
G1 X-34.089 Y-3.724 E7.97553
G1 X-33.711 Y-6.296 E8.10523
G1 X-33.56 Y-7.059 E8.14403
G1 X-32.927 Y-9.583 E8.27385
G1 X-32.705 Y-10.313 E8.31192
G1 X-31.826 Y-12.77 E8.44211
G1 X-31.535 Y-13.475 E8.48016
G1 X-30.429 Y-15.816 E8.60933
G1 X-30.065 Y-16.496 E8.64781
G1 X-28.721 Y-18.737 E8.77818
G1 X-28.296 Y-19.373 E8.81634
G1 X-26.746 Y-21.462 E8.94612
G1 X-26.262 Y-22.052 E8.98419
G1 X-24.523 Y-23.971 E9.11339
G1 X-23.985 Y-24.509 E9.15135
G1 X-22.06 Y-26.256 E9.28104
G1 X-21.466 Y-26.744 E9.3194
G1 X-19.377 Y-28.294 E9.44917
G1 X-18.74 Y-28.72 E9.48741
G1 X-16.512 Y-30.056 E9.61701
G1 X-15.839 Y-30.416 E9.65509
G1 X-13.486 Y-31.53 E9.78497
G1 X-12.777 Y-31.824 E9.82327
G1 X-10.324 Y-32.702 E9.95325
G1 X-9.593 Y-32.924 E9.99137
G1 X-7.066 Y-33.558 E10.12135
G1 X-6.305 Y-33.709 E10.16005
G1 X-3.727 Y-34.089 E10.29006
G1 X-2.975 Y-34.163 E10.32776
G1 X-0.383 Y-34.291 E10.45723
G1 X0.193 Y-34.298 E10.48597
G1 X1.498 Y-34.266 E10.5511
G1 X2.077 Y-34.23 E10.58004
G1 X4.668 Y-33.973 E10.70994
G1 X5.418 Y-33.861 E10.74777
G0 F3600 X5.34 Y-33.469
G1 F1800 X7.866 Y-32.967 E10.87626
G1 X8.57 Y-32.791 E10.91246
G1 X11.072 Y-32.033 E11.04289
G1 X11.757 Y-31.788 E11.07918
G1 X14.158 Y-30.794 E11.20883
G1 X14.813 Y-30.484 E11.24498
G1 X17.116 Y-29.254 E11.37524
G1 X17.745 Y-28.878 E11.4118
G1 X19.899 Y-27.437 E11.54109
G1 X20.477 Y-27.007 E11.57704
G1 X22.486 Y-25.359 E11.70667
G1 X23.024 Y-24.872 E11.74288
G1 X24.874 Y-23.023 E11.87337
G1 X25.367 Y-22.479 E11.91
G1 X27.013 Y-20.47 E12.03957
G1 X27.44 Y-19.894 E12.07534
G1 X28.88 Y-17.741 E12.20457
G1 X29.257 Y-17.112 E12.24115
G1 X30.488 Y-14.806 E12.37157
G1 X30.797 Y-14.153 E12.40761
G1 X31.787 Y-11.763 E12.53667
G1 X31.976 Y-11.252 E12.56385
G1 X32.384 Y-10.017 E12.62874
G1 X32.536 Y-9.497 E12.65577
G1 X33.168 Y-6.978 E12.78534
G1 X33.31 Y-6.261 E12.8218
G1 X33.692 Y-3.681 E12.95192
G1 X33.763 Y-2.962 E12.98797
G1 X33.891 Y-0.372 E13.11734
G1 X33.891 Y0.357 E13.15371
G1 X33.763 Y2.954 E13.28344
G1 X33.693 Y3.668 E13.31923
G1 X33.314 Y6.243 E13.44908
G1 X33.171 Y6.964 E13.48575
G1 X32.539 Y9.485 E13.61542
G1 X32.329 Y10.179 E13.65159
G1 X31.45 Y12.636 E13.78178
G1 X31.173 Y13.304 E13.81786
G1 X30.067 Y15.645 E13.94703
G1 X29.722 Y16.29 E13.98352
G1 X28.378 Y18.531 E14.11389
G1 X27.975 Y19.134 E14.15007
G1 X26.425 Y21.223 E14.27985
G1 X25.965 Y21.783 E14.31601
G1 X24.226 Y23.702 E14.44521
G1 X23.716 Y24.213 E14.48123
G1 X21.791 Y25.96 E14.61092
G1 X21.227 Y26.423 E14.64732
G1 X19.138 Y27.973 E14.7771
G1 X18.532 Y28.378 E14.81346
G1 X16.302 Y29.714 E14.94316
G1 X15.668 Y30.053 E14.97903
G1 X13.317 Y31.167 E15.10882
G1 X12.643 Y31.447 E15.14523
G1 X10.191 Y32.325 E15.27517
G1 X9.496 Y32.536 E15.3114
G1 X6.968 Y33.17 E15.44143
G1 X6.247 Y33.313 E15.4781
G1 X3.669 Y33.693 E15.60811
G1 X2.955 Y33.763 E15.6439
G1 X0.363 Y33.891 E15.77338
G1 X-0.367 Y33.891 E15.8098
G1 X-2.959 Y33.763 E15.93927
G1 X-3.674 Y33.693 E15.97511
G1 X-6.251 Y33.313 E16.10507
G1 X-6.972 Y33.169 E16.14175
G1 X-9.494 Y32.536 E16.27148
G1 X-10.187 Y32.326 E16.3076
G1 X-12.642 Y31.447 E16.4377
G1 X-13.317 Y31.167 E16.47415
G1 X-15.668 Y30.053 E16.60395
G1 X-16.303 Y29.713 E16.63988
G1 X-18.534 Y28.376 E16.76965
G1 X-19.139 Y27.972 E16.80594
G1 X-21.227 Y26.423 E16.93565
G1 X-21.791 Y25.96 E16.97205
G1 X-23.716 Y24.213 E17.10174
G1 X-24.226 Y23.702 E17.13776
G1 X-25.965 Y21.783 E17.26696
G1 X-26.424 Y21.225 E17.30301
G1 X-27.974 Y19.137 E17.43275
G1 X-28.379 Y18.531 E17.46911
G1 X-29.723 Y16.289 E17.59952
G1 X-30.067 Y15.645 E17.63595
G1 X-31.173 Y13.304 E17.76512
G1 X-31.45 Y12.636 E17.8012
G1 X-32.329 Y10.179 E17.93139
G1 X-32.539 Y9.484 E17.96761
G1 X-33.17 Y6.965 E18.09716
G1 X-33.312 Y6.249 E18.13358
G1 X-33.692 Y3.679 E18.26319
G1 X-33.763 Y2.962 E18.29914
G1 X-33.891 Y0.372 E18.42851
G1 X-33.891 Y-0.357 E18.46488
G1 X-33.763 Y-2.954 E18.59461
G1 X-33.693 Y-3.666 E18.6303
G1 X-33.315 Y-6.238 E18.75999
G1 X-33.172 Y-6.962 E18.79681
G1 X-32.539 Y-9.486 E18.92664
G1 X-32.329 Y-10.179 E18.96276
G1 X-31.45 Y-12.636 E19.09295
G1 X-31.173 Y-13.304 E19.12903
G1 X-30.067 Y-15.645 E19.2582
G1 X-29.722 Y-16.29 E19.29469
G1 X-28.378 Y-18.531 E19.42506
G1 X-27.975 Y-19.134 E19.46125
G1 X-26.425 Y-21.223 E19.59102
G1 X-25.965 Y-21.783 E19.62718
G1 X-24.226 Y-23.702 E19.75638
G1 X-23.716 Y-24.213 E19.7924
G1 X-21.791 Y-25.96 E19.92209
G1 X-21.227 Y-26.423 E19.9585
G1 X-19.138 Y-27.973 E20.08827
G1 X-18.535 Y-28.376 E20.12446
G1 X-16.307 Y-29.712 E20.25406
G1 X-15.667 Y-30.054 E20.29027
G1 X-13.314 Y-31.168 E20.42015
G1 X-12.642 Y-31.447 E20.45645
G1 X-10.189 Y-32.325 E20.58643
G1 X-9.496 Y-32.536 E20.62258
G1 X-6.969 Y-33.17 E20.75255
G1 X-6.247 Y-33.313 E20.78928
G1 X-3.669 Y-33.693 E20.91928
G1 X-2.955 Y-33.763 E20.95507
G1 X-0.363 Y-33.891 E21.08455
G1 X0.183 Y-33.898 E21.11179
G1 X1.488 Y-33.866 E21.17692
G1 X2.037 Y-33.832 E21.20436
G1 X4.628 Y-33.575 E21.33426
G1 X5.34 Y-33.469 E21.37017
G0 F3600 X5.262 Y-33.077
G1 F1800 X7.788 Y-32.575 E21.49866
G1 X8.454 Y-32.408 E21.53291
G1 X10.956 Y-31.65 E21.66334
G1 X11.604 Y-31.419 E21.69766
G1 X14.005 Y-30.425 E21.82731
G1 X14.625 Y-30.132 E21.86152
G1 X16.928 Y-28.902 E21.99178
G1 X17.522 Y-28.545 E22.02635
G1 X19.676 Y-27.104 E22.15565
G1 X20.224 Y-26.698 E22.18967
G1 X22.233 Y-25.05 E22.31931
G1 X22.741 Y-24.589 E22.35354
G1 X24.591 Y-22.74 E22.48403
G1 X25.058 Y-22.225 E22.51871
G1 X26.704 Y-20.216 E22.64829
G1 X27.108 Y-19.672 E22.68209
G1 X28.548 Y-17.519 E22.81132
G1 X28.904 Y-16.923 E22.84595
G1 X30.135 Y-14.617 E22.97636
G1 X30.427 Y-14 E23.01042
G1 X31.417 Y-11.61 E23.13948
G1 X31.597 Y-11.127 E23.1652
G1 X32.005 Y-9.892 E23.23009
G1 X32.148 Y-9.399 E23.2557
G1 X32.78 Y-6.88 E23.38527
G1 X32.915 Y-6.202 E23.41976
G1 X33.297 Y-3.622 E23.54988
G1 X33.363 Y-2.943 E23.58391
G1 X33.491 Y-0.353 E23.71328
G1 X33.492 Y0.338 E23.74776
G1 X33.364 Y2.935 E23.87748
G1 X33.297 Y3.609 E23.91127
G1 X32.918 Y6.184 E24.04112
G1 X32.783 Y6.867 E24.07586
G1 X32.151 Y9.388 E24.20552
G1 X31.952 Y10.044 E24.23972
G1 X31.073 Y12.501 E24.36991
G1 X30.811 Y13.133 E24.40404
G1 X29.705 Y15.474 E24.53322
G1 X29.379 Y16.084 E24.56772
G1 X28.035 Y18.325 E24.69809
G1 X27.654 Y18.896 E24.73234
G1 X26.104 Y20.985 E24.86211
G1 X25.669 Y21.514 E24.89628
G1 X23.93 Y23.433 E25.02549
G1 X23.447 Y23.917 E25.0596
G1 X21.522 Y25.664 E25.18929
G1 X20.989 Y26.102 E25.22371
G1 X18.9 Y27.652 E25.35349
G1 X18.327 Y28.035 E25.38787
G1 X16.097 Y29.371 E25.51756
G1 X15.496 Y29.692 E25.55156
G1 X13.145 Y30.806 E25.68135
G1 X12.508 Y31.07 E25.71575
G1 X10.056 Y31.948 E25.84569
G1 X9.399 Y32.148 E25.87995
G1 X6.871 Y32.782 E26.00998
G1 X6.189 Y32.917 E26.04466
G1 X3.611 Y33.297 E26.17467
G1 X2.935 Y33.363 E26.20856
G1 X0.343 Y33.491 E26.33803
G1 X-0.347 Y33.491 E26.37245
G1 X-2.939 Y33.363 E26.50193
G1 X-3.615 Y33.297 E26.53581
G1 X-6.192 Y32.917 E26.66577
G1 X-6.875 Y32.781 E26.70051
G1 X-9.397 Y32.148 E26.83024
G1 X-10.053 Y31.949 E26.86444
G1 X-12.508 Y31.07 E26.99454
G1 X-13.145 Y30.806 E27.02894
G1 X-15.496 Y29.692 E27.15873
G1 X-16.097 Y29.37 E27.19275
G1 X-18.328 Y28.033 E27.32251
G1 X-18.901 Y27.651 E27.35687
G1 X-20.989 Y26.102 E27.48657
G1 X-21.522 Y25.664 E27.52099
G1 X-23.447 Y23.917 E27.65068
G1 X-23.93 Y23.433 E27.6848
G1 X-25.669 Y21.514 E27.814
G1 X-26.103 Y20.986 E27.8481
G1 X-27.653 Y18.898 E27.97783
G1 X-28.036 Y18.325 E28.01222
G1 X-29.38 Y16.083 E28.14263
G1 X-29.705 Y15.474 E28.17707
G1 X-30.811 Y13.133 E28.30624
G1 X-31.073 Y12.501 E28.34037
G1 X-31.952 Y10.044 E28.47056
G1 X-32.151 Y9.387 E28.50481
G1 X-32.782 Y6.868 E28.63437
G1 X-32.917 Y6.191 E28.66881
G1 X-33.297 Y3.621 E28.79842
G1 X-33.363 Y2.943 E28.8324
G1 X-33.491 Y0.353 E28.96178
G1 X-33.492 Y-0.338 E28.99625
G1 X-33.364 Y-2.935 E29.12597
G1 X-33.298 Y-3.608 E29.15971
G1 X-32.92 Y-6.18 E29.28941
G1 X-32.784 Y-6.865 E29.32425
G1 X-32.151 Y-9.389 E29.45407
G1 X-31.952 Y-10.044 E29.48822
G1 X-31.073 Y-12.501 E29.61841
G1 X-30.811 Y-13.133 E29.65255
G1 X-29.705 Y-15.474 E29.78172
G1 X-29.379 Y-16.084 E29.81622
G1 X-28.035 Y-18.325 E29.94659
G1 X-27.654 Y-18.896 E29.98084
G1 X-26.104 Y-20.985 E30.11062
G1 X-25.669 Y-21.514 E30.14478
G1 X-23.93 Y-23.433 E30.27399
G1 X-23.447 Y-23.917 E30.3081
G1 X-21.522 Y-25.664 E30.43779
G1 X-20.989 Y-26.102 E30.47221
G1 X-18.9 Y-27.652 E30.60199
G1 X-18.329 Y-28.033 E30.63623
G1 X-16.101 Y-29.369 E30.76584
G1 X-15.496 Y-29.693 E30.80008
G1 X-13.143 Y-30.807 E30.92996
G1 X-12.507 Y-31.071 E30.96432
G1 X-10.054 Y-31.949 E31.0943
G1 X-9.398 Y-32.148 E31.1285
G1 X-6.871 Y-32.782 E31.25848
G1 X-6.189 Y-32.917 E31.29317
G1 X-3.611 Y-33.297 E31.42317
G1 X-2.935 Y-33.363 E31.45706
G1 X-0.343 Y-33.491 E31.58653
G1 X0.174 Y-33.498 E31.61233
G1 X1.479 Y-33.466 E31.67746
G1 X1.998 Y-33.434 E31.7034
G1 X4.589 Y-33.177 E31.8333
G1 X5.262 Y-33.077 E31.86724
G0 F3600 X5.184 Y-32.684
G1 F1800 X7.71 Y-32.182 E31.99573
G1 X8.338 Y-32.025 E32.02803
G1 X10.84 Y-31.267 E32.15845
G1 X11.451 Y-31.049 E32.19082
G1 X13.852 Y-30.055 E32.32046
G1 X14.436 Y-29.779 E32.35269
G1 X16.739 Y-28.549 E32.48295
G1 X17.3 Y-28.213 E32.51557
G1 X19.454 Y-26.772 E32.64487
G1 X19.97 Y-26.389 E32.67693
G1 X21.979 Y-24.741 E32.80656
G1 X22.459 Y-24.306 E32.83888
G1 X24.309 Y-22.457 E32.96937
G1 X24.748 Y-21.972 E33.00201
G1 X26.394 Y-19.963 E33.13158
G1 X26.775 Y-19.449 E33.1635
G1 X28.215 Y-17.296 E33.29273
G1 X28.551 Y-16.735 E33.32535
G1 X29.782 Y-14.429 E33.45577
G1 X30.058 Y-13.847 E33.4879
G1 X31.048 Y-11.457 E33.61696
G1 X31.217 Y-11.001 E33.64123
G1 X31.625 Y-9.766 E33.70612
G1 X31.76 Y-9.302 E33.73023
G1 X32.392 Y-6.783 E33.85979
G1 X32.519 Y-6.144 E33.8923
G1 X32.901 Y-3.564 E34.02242
G1 X32.964 Y-2.923 E34.05455
G1 X33.092 Y-0.333 E34.18392
G1 X33.092 Y0.318 E34.2164
G1 X32.964 Y2.915 E34.34612
G1 X32.902 Y3.551 E34.37801
G1 X32.523 Y6.126 E34.50786
G1 X32.395 Y6.77 E34.54061
G1 X31.763 Y9.291 E34.67028
G1 X31.575 Y9.909 E34.70251
G1 X30.696 Y12.366 E34.8327
G1 X30.45 Y12.962 E34.86486
G1 X29.344 Y15.303 E34.99403
G1 X29.036 Y15.879 E35.02662
G1 X27.692 Y18.12 E35.15699
G1 X27.332 Y18.658 E35.18929
G1 X25.782 Y20.747 E35.31906
G1 X25.373 Y21.246 E35.35125
G1 X23.634 Y23.165 E35.48045
G1 X23.178 Y23.62 E35.51259
G1 X21.253 Y25.367 E35.64228
G1 X20.751 Y25.78 E35.67472
G1 X18.662 Y27.33 E35.80449
G1 X18.121 Y27.692 E35.83697
G1 X15.891 Y29.028 E35.96666
G1 X15.325 Y29.33 E35.99867
G1 X12.974 Y30.444 E36.12846
G1 X12.373 Y30.694 E36.16093
G1 X9.921 Y31.572 E36.29087
G1 X9.302 Y31.76 E36.32315
G1 X6.774 Y32.394 E36.45317
G1 X6.13 Y32.521 E36.48592
G1 X3.552 Y32.901 E36.61593
G1 X2.916 Y32.964 E36.64781
G1 X0.324 Y33.092 E36.77729
G1 X-0.328 Y33.092 E36.80982
G1 X-2.92 Y32.964 E36.93929
G1 X-3.557 Y32.901 E36.97122
G1 X-6.134 Y32.521 E37.10118
G1 X-6.778 Y32.393 E37.13394
G1 X-9.3 Y31.76 E37.26366
G1 X-9.918 Y31.573 E37.29588
G1 X-12.373 Y30.694 E37.42597
G1 X-12.974 Y30.444 E37.45845
G1 X-15.325 Y29.33 E37.58824
G1 X-15.892 Y29.027 E37.62031
G1 X-18.123 Y27.69 E37.75008
G1 X-18.662 Y27.33 E37.78241
G1 X-20.75 Y25.781 E37.91212
G1 X-21.253 Y25.367 E37.94462
G1 X-23.178 Y23.62 E38.07431
G1 X-23.634 Y23.165 E38.10645
G1 X-25.373 Y21.246 E38.23565
G1 X-25.781 Y20.748 E38.26777
G1 X-27.331 Y18.66 E38.39751
G1 X-27.693 Y18.119 E38.42998
G1 X-29.037 Y15.877 E38.56039
G1 X-29.344 Y15.303 E38.59287
G1 X-30.45 Y12.962 E38.72204
G1 X-30.696 Y12.366 E38.75421
G1 X-31.575 Y9.909 E38.8844
G1 X-31.763 Y9.29 E38.91667
G1 X-32.394 Y6.771 E39.04623
G1 X-32.521 Y6.132 E39.07873
G1 X-32.901 Y3.562 E39.20834
G1 X-32.964 Y2.923 E39.24038
G1 X-33.092 Y0.333 E39.36975
G1 X-33.092 Y-0.318 E39.40223
G1 X-32.964 Y-2.915 E39.53195
G1 X-32.902 Y-3.55 E39.56378
G1 X-32.524 Y-6.122 E39.69348
G1 X-32.396 Y-6.768 E39.72634
G1 X-31.763 Y-9.292 E39.85616
G1 X-31.575 Y-9.909 E39.88834
G1 X-30.696 Y-12.366 E40.01853
G1 X-30.45 Y-12.962 E40.05069
G1 X-29.344 Y-15.303 E40.17987
G1 X-29.036 Y-15.879 E40.21245
G1 X-27.692 Y-18.12 E40.34282
G1 X-27.332 Y-18.658 E40.37512
G1 X-25.782 Y-20.747 E40.50489
G1 X-25.373 Y-21.246 E40.53708
G1 X-23.634 Y-23.165 E40.66628
G1 X-23.178 Y-23.62 E40.69842
G1 X-21.253 Y-25.367 E40.82811
G1 X-20.751 Y-25.78 E40.86055
G1 X-18.662 Y-27.33 E40.99032
G1 X-18.123 Y-27.69 E41.02266
G1 X-15.895 Y-29.026 E41.15227
G1 X-15.325 Y-29.331 E41.18452
G1 X-12.972 Y-30.445 E41.3144
G1 X-12.372 Y-30.694 E41.34681
G1 X-9.919 Y-31.572 E41.4768
G1 X-9.301 Y-31.76 E41.50902
G1 X-6.774 Y-32.394 E41.639
